<?xml version="1.0" encoding="UTF-8"?>
<map version="1.10" tiledversion="1.11.2" orientation="orthogonal" renderorder="right-down" width="21" height="42" tilewidth="16" tileheight="16" infinite="0" nextlayerid="3" nextobjectid="1">
 <tileset firstgid="1" name="grass_biome" tilewidth="16" tileheight="16" tilecount="252" columns="12">
  <image source="../gfx/overworld_tileset_grass.png" width="192" height="336"/>
  <tile id="0" probability="20"/>
  <wangsets>
   <wangset name="Terrains" type="corner" tile="-1">
    <wangcolor name="Grass" color="#ff0000" tile="13" probability="1"/>
    <wangcolor name="Water" color="#00ff00" tile="0" probability="1"/>
    <wangcolor name="Forest" color="#0000ff" tile="0" probability="1"/>
    <wangcolor name="Swampgrass" color="#ff7700" tile="0" probability="1"/>
    <wangcolor name="Swamp" color="#00e9ff" tile="0" probability="1"/>
    <wangtile tileid="0" wangid="0,1,0,1,0,1,0,1"/>
    <wangtile tileid="1" wangid="0,1,0,1,0,1,0,1"/>
    <wangtile tileid="2" wangid="0,1,0,1,0,1,0,1"/>
    <wangtile tileid="3" wangid="0,1,0,1,0,1,0,1"/>
    <wangtile tileid="4" wangid="0,1,0,1,0,1,0,1"/>
    <wangtile tileid="13" wangid="0,1,0,1,0,1,0,1"/>
    <wangtile tileid="14" wangid="0,1,0,1,0,1,0,1"/>
    <wangtile tileid="25" wangid="0,1,0,1,0,1,0,1"/>
    <wangtile tileid="26" wangid="0,1,0,1,0,1,0,1"/>
    <wangtile tileid="37" wangid="0,1,0,1,0,1,0,1"/>
    <wangtile tileid="38" wangid="0,1,0,1,0,1,0,1"/>
    <wangtile tileid="48" wangid="0,1,0,2,0,1,0,1"/>
    <wangtile tileid="49" wangid="0,1,0,2,0,2,0,1"/>
    <wangtile tileid="50" wangid="0,1,0,1,0,2,0,1"/>
    <wangtile tileid="51" wangid="0,4,0,5,0,4,0,4"/>
    <wangtile tileid="52" wangid="0,4,0,5,0,5,0,4"/>
    <wangtile tileid="53" wangid="0,4,0,4,0,5,0,4"/>
    <wangtile tileid="57" wangid="0,1,0,3,0,1,0,1"/>
    <wangtile tileid="58" wangid="0,1,0,3,0,3,0,1"/>
    <wangtile tileid="59" wangid="0,1,0,1,0,3,0,1"/>
    <wangtile tileid="60" wangid="0,2,0,2,0,1,0,1"/>
    <wangtile tileid="61" wangid="0,2,0,2,0,2,0,2"/>
    <wangtile tileid="62" wangid="0,1,0,1,0,2,0,2"/>
    <wangtile tileid="63" wangid="0,5,0,5,0,4,0,4"/>
    <wangtile tileid="64" wangid="0,5,0,5,0,5,0,5"/>
    <wangtile tileid="65" wangid="0,4,0,4,0,5,0,5"/>
    <wangtile tileid="69" wangid="0,3,0,3,0,1,0,1"/>
    <wangtile tileid="70" wangid="0,3,0,3,0,3,0,3"/>
    <wangtile tileid="71" wangid="0,1,0,1,0,3,0,3"/>
    <wangtile tileid="72" wangid="0,2,0,1,0,1,0,1"/>
    <wangtile tileid="73" wangid="0,2,0,1,0,1,0,2"/>
    <wangtile tileid="74" wangid="0,1,0,1,0,1,0,2"/>
    <wangtile tileid="75" wangid="0,5,0,4,0,4,0,4"/>
    <wangtile tileid="76" wangid="0,5,0,4,0,4,0,5"/>
    <wangtile tileid="77" wangid="0,4,0,4,0,4,0,5"/>
    <wangtile tileid="81" wangid="0,3,0,1,0,1,0,1"/>
    <wangtile tileid="82" wangid="0,3,0,1,0,1,0,3"/>
    <wangtile tileid="83" wangid="0,1,0,1,0,1,0,3"/>
    <wangtile tileid="84" wangid="0,2,0,1,0,2,0,2"/>
    <wangtile tileid="85" wangid="0,2,0,2,0,1,0,2"/>
    <wangtile tileid="87" wangid="0,5,0,4,0,5,0,5"/>
    <wangtile tileid="88" wangid="0,5,0,5,0,4,0,5"/>
    <wangtile tileid="89" wangid="0,4,0,4,0,4,0,4"/>
    <wangtile tileid="93" wangid="0,3,0,1,0,3,0,3"/>
    <wangtile tileid="94" wangid="0,3,0,3,0,1,0,3"/>
    <wangtile tileid="96" wangid="0,1,0,2,0,2,0,2"/>
    <wangtile tileid="97" wangid="0,2,0,2,0,2,0,1"/>
    <wangtile tileid="99" wangid="0,4,0,5,0,5,0,5"/>
    <wangtile tileid="100" wangid="0,5,0,5,0,5,0,4"/>
    <wangtile tileid="105" wangid="0,1,0,3,0,3,0,3"/>
    <wangtile tileid="106" wangid="0,3,0,3,0,3,0,1"/>
    <wangtile tileid="123" wangid="0,4,0,4,0,4,0,4"/>
    <wangtile tileid="124" wangid="0,4,0,4,0,4,0,4"/>
    <wangtile tileid="125" wangid="0,4,0,4,0,4,0,4"/>
    <wangtile tileid="135" wangid="0,4,0,4,0,4,0,4"/>
    <wangtile tileid="136" wangid="0,4,0,4,0,4,0,4"/>
    <wangtile tileid="137" wangid="0,4,0,4,0,4,0,4"/>
   </wangset>
  </wangsets>
 </tileset>
 <layer id="1" name="Kachelebene 1" width="21" height="42">
  <data encoding="csv">
62,62,62,62,62,62,62,62,62,62,62,62,62,62,62,62,62,62,62,62,62,
62,62,62,62,62,62,62,62,62,62,62,62,62,62,62,62,62,62,62,62,62,
62,62,62,62,62,62,62,62,62,62,62,62,62,62,62,62,62,62,62,62,62,
62,62,62,62,62,62,62,62,62,62,62,62,62,62,62,62,62,62,62,62,62,
62,62,62,62,62,62,62,62,62,62,62,62,62,62,62,62,62,62,62,62,62,
62,62,62,62,62,62,62,62,62,62,62,62,62,62,62,62,62,62,62,62,62,
62,62,62,62,62,62,62,62,62,62,62,62,62,62,62,62,62,62,62,62,62,
62,62,62,62,62,62,62,62,62,62,62,62,62,62,62,62,62,62,62,62,62,
62,62,62,62,62,85,74,74,74,74,74,74,86,62,62,62,62,62,62,62,62,
62,62,62,85,74,75,2,1,4,1,1,38,61,62,62,62,62,62,62,62,62,
62,62,62,63,3,1,1,1,2,39,1,39,73,74,86,62,62,62,62,62,62,
62,62,85,75,127,56,56,56,56,56,57,3,1,15,73,74,86,62,62,62,62,
62,62,63,58,59,59,60,55,56,57,69,1,1,3,1,1,73,86,62,62,62,
62,62,63,70,71,71,72,67,116,69,69,1,26,1,1,14,1,73,86,62,62,
62,62,63,82,83,83,84,79,80,81,69,157,158,159,160,1,1,1,61,62,62,
62,62,63,1,139,92,1,91,80,80,81,169,170,171,172,14,38,1,61,62,62,
62,85,75,1,1,142,143,144,1,1,1,181,182,183,184,1,1,2,61,62,62,
62,63,1,1,1,1,1,58,59,59,59,60,1,42,7,20,3,1,61,62,62,
62,63,1,1,1,1,1,70,71,71,71,106,60,1,1,29,1,15,61,62,62,
62,97,51,1,1,1,1,70,71,71,71,71,106,60,1,1,15,1,61,62,62,
62,62,63,1,39,186,1,82,83,83,95,71,71,106,60,21,1,1,73,86,62,
62,62,97,51,39,29,39,96,49,51,70,71,71,71,72,33,1,1,1,61,62,
62,62,62,63,39,29,39,96,73,75,70,71,71,71,72,33,58,59,60,61,62,
62,62,62,63,1,42,7,20,1,1,82,95,71,71,72,33,70,71,72,61,62,
62,62,62,97,50,51,1,42,10,24,2,82,83,83,84,33,82,83,84,61,62,
62,62,62,62,62,97,51,1,1,46,11,11,11,11,11,48,1,1,1,61,62,
62,62,62,62,62,62,63,1,3,4,3,4,1,1,1,5,1,1,1,61,62,
62,62,62,62,62,62,63,1,1,1,2,5,23,27,13,58,59,60,1,61,62,
62,62,62,62,85,74,75,1,58,59,59,60,33,4,58,107,71,72,1,61,62,
62,62,62,85,75,1,1,58,107,71,71,72,33,58,107,71,71,72,1,61,62,
62,62,62,63,1,1,58,107,71,71,71,72,33,70,71,71,94,84,49,98,62,
62,62,85,75,1,58,107,71,71,71,94,84,33,70,71,94,84,1,61,62,62,
62,85,75,1,58,107,71,71,71,71,72,1,33,82,83,84,1,49,98,62,62,
62,63,1,1,70,71,71,71,71,71,72,1,4,1,1,1,1,61,62,62,62,
62,63,1,1,70,71,94,95,71,71,106,60,1,1,1,1,49,98,62,62,62,
62,63,1,1,82,83,84,82,83,95,71,72,1,1,5,49,98,62,62,62,62,
62,97,51,1,1,1,1,1,1,70,71,72,1,1,1,61,62,62,62,62,62,
62,62,97,50,51,1,1,1,1,82,83,84,1,1,49,98,62,62,62,62,62,
62,62,62,62,97,50,50,50,51,1,1,1,1,49,98,62,62,62,62,62,62,
62,62,62,62,62,62,62,62,97,50,50,50,50,98,62,62,62,62,62,62,62,
62,62,62,62,62,62,62,62,62,62,62,62,62,62,62,62,62,62,62,62,62,
62,62,62,62,62,62,62,62,62,62,62,62,62,62,62,62,62,62,62,62,62
</data>
 </layer>
 <layer id="2" name="Tile Layer 2" width="21" height="42">
  <data encoding="csv">
0,0,0,0,0,0,0,0,0,0,0,0,0,0,0,0,0,0,0,0,0,
0,0,0,0,0,0,0,0,0,0,0,0,0,0,0,0,0,0,0,0,0,
0,0,0,0,0,0,0,0,0,0,0,0,0,0,0,0,0,0,0,0,0,
0,0,0,0,0,0,0,0,0,0,0,0,0,0,0,0,0,0,0,0,0,
0,0,0,0,0,0,0,0,0,0,0,0,0,0,0,0,0,0,0,0,0,
0,0,0,0,0,0,0,0,0,0,0,0,0,0,0,0,0,0,0,0,0,
0,0,0,0,0,0,0,0,0,0,0,0,0,0,0,0,0,0,0,0,0,
0,0,0,0,0,0,0,0,0,0,0,0,0,0,0,0,0,0,0,0,0,
0,0,0,0,0,0,0,0,0,0,0,0,0,0,0,0,0,0,0,0,0,
0,0,0,0,0,0,0,0,0,0,0,0,0,0,0,0,0,0,0,0,0,
0,0,0,0,0,0,0,0,0,0,0,0,0,0,0,0,0,0,0,0,0,
0,0,0,0,0,0,0,0,0,0,0,0,0,0,0,0,0,0,0,0,0,
0,0,0,0,0,0,0,0,0,0,0,0,0,0,0,0,0,0,0,0,0,
0,0,0,0,0,0,0,0,0,0,0,145,146,147,148,0,0,0,0,0,0,
0,0,0,0,0,0,0,0,0,0,0,0,0,0,0,0,0,0,0,0,0,
0,0,0,0,0,0,0,0,0,0,0,0,0,0,0,0,0,0,0,0,0,
0,0,0,0,0,0,0,0,0,0,0,0,0,0,0,0,0,0,0,0,0,
0,0,0,0,149,150,151,0,0,0,0,0,116,0,0,0,0,0,0,0,0,
0,0,0,0,161,162,163,0,0,0,0,0,0,96,0,0,0,0,0,0,0,
0,0,0,0,173,174,175,0,0,0,0,0,0,0,0,29,0,0,0,0,0,
0,0,0,0,185,0,187,0,0,0,0,0,0,0,0,0,0,0,0,0,0,
0,0,0,0,0,17,0,0,0,0,0,0,0,0,0,0,116,0,0,0,0,
0,0,0,0,0,0,0,0,0,0,0,0,0,0,0,0,0,0,0,0,0,
0,0,0,0,0,0,0,0,0,0,0,0,0,0,0,0,0,0,0,0,0,
0,0,0,0,0,0,0,0,0,0,0,0,0,164,165,0,0,0,0,0,0,
0,0,0,0,0,0,0,0,0,0,0,0,23,176,177,0,0,0,0,0,0,
0,0,0,0,0,0,0,0,0,0,0,0,33,188,189,0,0,0,0,0,0,
0,0,0,0,0,0,0,0,0,0,96,0,33,0,0,0,0,0,0,0,0,
0,0,0,0,0,0,0,0,0,0,0,0,0,0,0,0,0,0,0,0,0,
0,0,0,0,0,0,0,0,0,0,0,0,0,0,0,0,0,0,0,0,0,
0,0,0,0,0,0,0,0,0,0,0,0,0,0,0,0,0,0,0,0,0,
0,0,0,0,0,0,0,0,0,0,0,0,45,0,0,0,0,0,0,0,0,
0,0,0,0,0,0,0,0,0,0,0,108,29,0,0,0,0,0,0,0,0,
0,0,0,0,0,0,0,0,0,0,0,108,29,0,0,0,0,0,0,0,0,
0,0,0,0,0,0,0,0,0,0,0,0,41,0,0,0,0,0,0,0,0,
0,0,0,0,0,0,0,0,0,0,0,0,0,0,0,0,0,0,0,0,0,
0,0,0,0,0,0,0,0,0,0,0,0,0,0,0,0,0,0,0,0,0,
0,0,0,0,0,0,0,0,0,0,0,0,0,0,0,0,0,0,0,0,0,
0,0,0,0,0,0,0,0,0,0,0,0,0,0,0,0,0,0,0,0,0,
0,0,0,0,0,0,0,0,0,0,0,0,0,0,0,0,0,0,0,0,0,
0,0,0,0,0,0,0,0,0,0,0,0,0,0,0,0,0,0,0,0,0,
0,0,0,0,0,0,0,0,0,0,0,0,0,0,0,0,0,0,0,0,0
</data>
 </layer>
</map>
