<?xml version="1.0" encoding="UTF-8"?>
<map version="1.10" tiledversion="1.11.2" orientation="orthogonal" renderorder="right-down" width="60" height="60" tilewidth="32" tileheight="32" infinite="0" nextlayerid="23" nextobjectid="600">
 <tileset firstgid="1" source="[A]WaterFall_pipo.tsx"/>
 <tileset firstgid="577" name="[Base]BaseChip_pipo" tilewidth="32" tileheight="32" tilecount="1064" columns="8">
  <image source="[Base]BaseChip_pipo.png" width="256" height="4256"/>
 </tileset>
 <tileset firstgid="1641" source="[A]Grass_pipo.tsx"/>
 <tileset firstgid="2169" source="[A]Water_pipo.tsx"/>
 <tileset firstgid="5241" source="[A]Flower_pipo.tsx"/>
 <layer id="5" name="ground" width="60" height="60">
  <data encoding="csv">
577,577,577,577,577,577,577,577,577,577,577,577,577,577,577,577,577,577,577,577,577,577,577,577,577,577,577,577,577,1943,1944,577,577,577,577,577,577,577,577,577,577,577,1710,1718,582,582,582,1717,1711,1711,1711,1711,1718,582,582,582,582,582,582,582,
577,577,577,577,577,577,577,577,577,577,577,577,577,577,577,577,577,577,577,577,577,577,577,577,577,577,577,577,1943,1943,1944,577,577,577,577,577,577,577,577,577,577,577,577,1710,1718,1717,1711,1712,577,577,577,577,1710,1711,1718,582,582,582,582,582,
577,577,577,577,577,577,577,577,577,577,577,577,577,577,577,577,577,577,577,577,577,577,577,577,577,577,577,577,1943,1943,1944,577,577,577,577,577,577,577,577,577,577,577,577,577,1710,1712,577,577,577,577,577,577,577,1710,1710,1718,582,582,582,582,
577,577,577,577,577,577,577,577,577,577,577,577,577,577,577,577,577,577,577,577,577,577,577,577,577,577,577,577,1943,1943,1944,577,577,577,577,577,577,577,577,577,577,577,577,577,577,577,577,577,577,577,577,577,577,577,1710,1710,1718,582,582,582,
577,577,577,577,577,577,577,577,577,577,577,577,577,577,577,577,577,577,577,577,577,577,577,577,577,577,577,577,1943,1943,1965,1936,577,577,577,577,577,577,577,577,577,577,577,577,577,577,577,577,577,577,582,582,577,577,577,577,1710,1718,582,1717,
577,577,577,577,577,577,577,577,577,577,577,577,577,577,577,577,577,577,577,577,577,577,577,577,577,577,577,1943,1943,1943,1943,1944,577,577,577,577,577,577,577,577,577,577,577,577,577,577,577,577,577,577,1710,1718,582,577,577,577,577,1702,582,1712,
577,577,577,577,577,577,577,577,577,577,577,577,577,577,577,577,577,577,577,577,577,577,577,577,577,577,577,1943,1943,1943,1943,1965,1936,577,577,577,577,577,577,577,577,577,577,577,577,577,577,577,577,577,577,1710,1711,1718,577,577,577,1710,1714,577,
577,577,577,577,577,577,577,577,577,577,577,577,577,577,577,577,577,577,577,577,577,577,577,577,577,577,1943,1943,1943,1943,1943,1943,1965,1936,577,577,577,577,577,577,577,577,577,577,577,577,577,577,577,577,577,577,577,1710,577,577,577,577,1709,577,
577,577,577,577,577,577,577,577,577,577,577,577,577,577,577,577,577,577,577,577,577,577,577,577,577,577,1943,1943,1943,1943,1943,1943,1943,1944,577,577,577,577,577,577,577,577,577,577,577,577,577,577,577,577,577,577,577,577,577,577,577,577,577,577,
577,577,577,577,577,577,577,577,577,577,577,577,1655,1655,1655,577,577,577,577,577,577,577,577,577,577,1943,1943,1943,1943,1943,1943,1943,1957,1952,577,577,577,577,577,577,577,577,577,577,577,577,577,577,577,577,577,577,577,577,577,577,577,577,577,577,
577,577,577,577,577,577,577,577,577,577,577,1654,1655,1669,1664,577,577,577,577,577,577,577,577,577,577,1943,1943,1943,1943,1943,1957,1951,1952,577,577,577,577,577,577,577,577,577,577,577,577,577,577,577,577,577,577,577,577,577,577,577,577,577,577,577,
577,577,577,577,577,577,577,577,577,577,1646,1678,1655,1656,577,577,577,577,577,577,577,577,577,577,1943,1943,1943,1943,1943,1957,1952,577,577,577,577,577,577,577,577,577,577,577,577,577,577,577,577,577,577,577,577,577,577,577,577,577,577,577,577,577,
577,577,577,577,577,577,577,577,577,1646,1678,1655,1669,1664,577,577,577,577,577,577,577,577,577,577,1943,1943,1943,1943,1957,1952,577,577,577,577,577,577,577,577,577,577,577,577,577,577,577,577,577,577,577,577,577,577,577,577,577,577,577,577,577,577,
577,577,577,577,577,577,577,577,1646,1678,1669,1663,1664,577,577,577,577,577,577,577,577,577,577,577,1943,1943,1943,1943,1944,577,577,577,577,577,577,577,577,577,577,577,577,577,577,577,577,577,577,577,577,577,577,577,577,577,577,577,577,577,577,577,
577,577,577,577,577,577,577,1646,1678,1669,1664,577,577,577,577,577,577,577,577,577,577,577,577,1943,1943,1943,1943,1957,1952,577,577,577,577,577,577,577,577,577,577,577,577,577,577,577,577,577,577,577,577,577,577,577,577,577,577,577,577,577,577,577,
577,577,577,577,577,577,577,1654,1655,1656,577,577,577,577,577,577,577,577,577,577,577,577,1943,1943,1943,1943,1957,1952,577,577,577,577,577,577,577,577,577,577,577,577,577,577,577,577,577,577,577,577,577,577,577,577,577,578,578,577,577,577,577,577,
577,577,577,577,577,577,1646,1678,1669,1664,577,577,577,577,577,577,577,577,577,577,577,577,1943,1943,1943,1943,1944,577,577,577,577,577,577,577,577,577,577,577,577,577,577,577,577,577,577,577,577,577,577,577,577,577,1838,1870,578,577,577,577,577,577,
577,577,577,577,577,577,1654,1655,1656,577,577,577,577,577,577,577,577,577,577,577,577,577,1943,1951,1958,1957,1952,577,577,577,577,577,577,577,577,577,577,577,577,577,577,577,577,577,577,577,577,577,577,577,577,1838,1870,578,578,578,578,577,577,577,
577,577,577,577,577,577,1654,1655,1656,577,577,577,577,577,577,577,577,577,577,577,577,577,577,577,1953,1952,577,577,577,577,577,577,577,577,577,577,577,577,577,577,577,577,577,577,577,577,577,577,577,577,577,1846,578,578,578,578,578,578,577,577,
577,577,577,577,577,577,1654,1655,1656,577,577,577,577,577,577,577,577,577,577,577,577,577,577,1930,1946,577,577,577,577,577,577,577,577,577,577,577,577,577,577,577,577,577,577,577,577,577,577,577,577,577,1838,1870,578,578,578,578,578,578,578,578,
577,577,577,577,577,577,577,577,577,577,577,577,577,577,577,577,577,577,577,577,577,577,577,577,577,577,577,577,577,577,577,577,577,577,577,577,577,577,577,577,577,577,577,577,577,577,577,577,577,1838,1870,578,578,578,578,578,578,578,578,578,
577,577,577,577,577,577,577,577,577,577,577,577,577,577,577,577,577,577,577,577,577,577,577,577,577,577,577,577,577,577,577,577,577,577,577,577,577,577,577,577,577,577,577,577,577,577,577,577,577,1854,1855,1862,578,578,578,578,578,578,578,578,
577,577,577,577,577,577,577,577,577,577,577,577,577,577,577,577,577,577,577,577,577,577,577,577,577,577,577,577,577,577,577,577,577,577,577,577,577,577,577,577,577,577,577,577,577,577,577,577,577,577,577,1854,1855,1862,578,578,578,578,578,578,
577,577,577,577,577,577,1654,1655,1656,577,577,577,577,577,577,577,577,577,577,577,577,577,577,577,577,577,577,577,577,577,577,577,577,577,577,577,577,577,577,577,577,577,577,577,577,577,577,577,577,577,577,577,577,1854,1862,578,578,578,578,578,
577,577,577,577,577,577,1654,1655,1677,1648,577,577,577,577,577,577,577,577,577,577,577,577,577,577,577,577,577,577,577,577,577,577,577,577,577,577,577,577,577,577,577,577,577,577,577,577,577,1834,1840,577,577,577,577,577,1846,578,578,578,578,578,
577,577,577,577,577,577,1662,1670,1655,1677,1648,577,577,577,577,577,577,577,577,577,577,577,577,577,577,577,577,577,577,577,1670,1669,577,577,577,577,577,581,581,581,577,577,577,577,577,577,577,577,1853,577,577,577,577,577,1854,1855,1855,1862,578,578,
577,577,577,577,577,577,577,1654,1655,1655,1656,577,577,577,577,577,577,577,577,577,577,577,577,577,577,577,577,577,577,577,1654,1656,577,577,577,577,577,1654,581,1656,577,577,577,577,577,577,577,577,577,1833,1838,1839,1840,577,577,577,1833,1846,578,578,
577,577,577,577,577,577,577,1662,1670,1655,1677,1647,1647,1648,577,577,577,577,577,577,577,577,577,577,577,577,577,577,577,1646,1678,1677,1648,577,577,577,577,1654,581,1656,577,577,577,577,577,577,577,577,577,1834,1876,578,1869,1840,577,577,577,1846,578,578,
577,577,577,577,577,577,577,577,1662,1670,1655,1655,1655,1677,1647,1647,1648,577,577,577,577,577,577,577,577,577,577,1646,1647,1678,581,581,1677,1647,1647,1647,1647,1678,581,1677,1648,577,577,577,577,577,577,577,577,577,1854,1855,1862,1875,1836,577,1838,1870,578,578,
577,577,577,577,577,577,577,577,577,1662,1670,1655,1655,1655,1655,1655,1677,1647,1648,577,577,577,581,1646,1647,1647,1647,1678,581,581,581,581,581,581,581,581,581,581,581,581,1656,577,577,577,577,577,577,577,577,577,577,577,1854,1856,577,577,1846,578,578,578,
577,577,577,577,577,577,577,577,577,577,1654,1655,1655,1655,1655,1655,1655,1655,1655,577,577,577,581,581,581,581,581,581,581,581,581,581,581,581,581,581,581,581,581,581,1677,1648,577,577,577,577,577,577,577,577,577,577,577,577,577,577,1854,1855,1862,578,
577,577,577,577,577,577,577,577,577,577,1662,1670,1655,1669,1663,1663,1663,1663,1663,577,577,577,581,581,581,581,581,1669,1663,1663,1663,1663,1663,1663,1670,581,581,581,581,581,581,1677,1647,1648,577,577,577,577,577,577,577,577,577,577,577,577,577,577,1854,1855,
577,577,577,577,577,577,577,577,577,577,577,1662,1663,1664,577,577,577,577,577,577,577,577,1662,1663,1663,1663,1663,1664,577,577,577,577,577,577,1662,1663,1663,1663,1670,581,581,581,581,1677,1647,1647,1648,577,577,577,577,577,577,577,577,577,577,577,577,577,
577,577,577,577,577,577,577,577,577,577,577,577,577,577,577,577,577,577,577,577,577,577,577,577,577,577,577,577,577,577,577,577,577,577,577,577,577,577,1662,1663,1663,1663,1670,581,581,581,1677,1647,1647,1647,1647,1647,1648,577,577,577,577,577,577,577,
577,577,577,577,577,577,577,577,577,577,577,577,577,577,577,577,577,577,577,577,577,577,577,577,577,577,577,577,577,577,577,577,577,577,577,577,577,577,577,577,577,577,1662,1670,581,581,581,581,581,581,581,581,1677,1648,577,577,577,577,577,577,
577,577,577,577,577,577,577,577,577,577,577,577,577,577,577,577,577,577,577,577,577,577,577,577,577,577,577,577,577,577,577,577,577,577,577,577,577,577,577,577,577,577,577,1662,1663,1663,1663,1663,1670,581,581,581,581,1656,577,577,577,577,577,577,
577,577,577,577,577,577,577,577,577,577,577,577,577,577,577,577,577,577,577,577,577,577,577,577,577,577,577,577,577,577,577,577,577,577,577,577,577,577,577,577,577,577,577,577,577,577,577,577,1662,1663,1670,581,581,1656,577,577,577,577,577,577,
577,577,577,577,577,577,577,577,577,577,577,577,577,577,577,577,577,577,577,577,577,577,577,577,577,577,577,577,577,577,577,577,577,577,577,577,577,577,577,577,577,577,577,577,577,577,577,577,577,577,577,577,581,1677,577,577,577,577,577,577,
577,577,577,577,577,577,577,577,577,577,577,577,577,577,577,577,577,577,577,577,577,577,577,577,577,577,577,577,577,577,577,577,577,577,577,577,577,577,577,577,577,577,577,577,577,577,577,577,577,577,577,577,581,581,577,577,577,577,577,577,
577,577,577,577,577,577,577,577,577,577,577,577,577,577,577,577,577,577,577,577,577,577,577,577,577,577,577,577,577,577,577,577,577,577,577,577,577,577,577,577,577,577,577,577,577,577,577,577,577,577,577,577,581,581,577,577,577,577,577,577,
577,577,577,577,577,577,577,577,577,577,577,577,577,577,577,577,577,577,577,577,577,577,577,577,577,577,577,577,577,577,577,577,577,577,577,577,577,577,577,577,577,577,577,577,577,577,577,577,577,577,867,867,867,867,577,577,577,577,577,577,
577,577,577,577,577,577,577,577,577,577,577,577,577,577,577,577,577,577,577,577,577,577,577,577,577,577,577,577,577,577,577,577,577,577,577,577,577,577,577,577,577,577,867,867,867,867,867,867,867,867,867,867,867,867,867,867,867,867,867,867,
577,577,577,577,577,577,577,577,577,577,577,577,577,577,577,577,577,577,577,577,577,577,577,577,577,577,577,577,577,577,577,577,577,577,577,577,577,577,577,577,867,867,867,867,867,867,867,867,867,867,867,867,867,867,867,867,867,867,867,867,
577,577,577,577,577,577,577,577,577,577,577,577,577,577,577,577,577,577,577,577,577,577,577,577,577,577,577,577,577,577,577,577,577,577,577,577,577,577,577,867,867,867,867,867,867,867,867,867,867,867,867,867,867,867,867,867,867,867,867,867,
1792,577,577,577,577,577,577,577,577,577,577,577,577,577,577,577,577,577,577,577,577,577,577,577,577,577,577,577,577,577,577,577,577,577,577,577,577,867,867,867,867,867,867,867,867,867,867,867,867,867,867,867,867,867,867,867,867,867,867,867,
1800,577,577,577,577,577,577,577,577,577,577,577,577,577,577,577,577,577,577,577,577,577,577,577,577,577,577,577,577,577,577,577,577,577,577,577,867,867,867,867,867,867,867,867,867,867,867,867,867,867,867,867,867,867,867,867,867,867,867,867,
1800,577,577,577,577,577,577,577,577,577,577,577,577,577,577,577,577,577,577,577,577,577,577,577,577,577,577,577,577,577,577,577,577,577,577,577,867,867,867,867,867,867,867,867,867,867,867,867,867,867,867,867,867,867,867,867,867,867,867,867,
1821,1792,577,577,577,577,577,577,577,577,577,577,577,577,577,577,577,577,577,577,577,577,577,577,577,577,577,577,577,577,577,577,577,577,577,577,867,867,867,867,867,867,867,867,867,867,867,867,867,867,867,867,867,867,867,867,867,867,867,867,
584,1800,577,577,577,577,577,577,577,577,577,577,577,577,577,577,577,577,577,577,577,577,577,577,577,577,577,577,577,577,577,577,577,577,577,867,867,867,867,867,867,867,867,835,835,835,835,835,835,835,835,835,835,835,835,835,835,835,835,835,
584,1821,1792,577,577,577,577,577,577,577,577,577,577,577,577,577,577,577,577,577,577,577,577,577,577,577,577,577,577,577,577,577,577,577,577,867,867,867,867,867,867,867,867,835,835,835,835,835,835,835,835,835,835,835,835,835,835,835,835,835,
584,584,1821,1792,577,577,577,577,577,577,577,577,577,577,577,577,577,577,577,577,577,577,577,577,577,577,577,577,577,577,577,577,577,577,577,867,867,867,867,867,867,867,867,867,867,867,867,867,867,867,867,867,867,867,867,867,867,867,867,867,
584,584,584,1821,1792,577,577,577,577,577,577,577,577,577,577,577,577,577,577,577,577,577,577,577,577,577,577,577,577,577,577,577,577,577,577,867,867,867,867,867,867,867,867,867,867,867,867,867,867,867,867,867,867,867,867,867,867,867,867,867,
584,584,584,584,1821,1791,1791,1792,577,577,577,577,577,577,577,577,577,577,577,577,577,577,577,577,577,577,577,577,577,577,577,577,577,577,577,867,867,867,867,867,867,867,867,867,867,867,867,867,867,867,867,867,867,867,867,867,867,867,867,867,
584,584,584,584,584,584,584,1821,1791,584,577,577,577,577,577,577,1792,577,577,577,577,577,577,577,577,577,577,577,577,577,577,577,577,577,577,867,867,867,867,867,867,867,867,867,867,867,867,867,867,867,867,867,867,867,867,867,867,867,867,867,
584,584,584,584,584,584,584,584,584,584,584,584,584,577,577,584,1800,577,577,577,577,577,577,577,577,577,577,577,577,577,577,577,577,577,577,867,867,867,867,867,867,867,867,867,867,867,867,867,867,867,884,884,884,884,884,884,884,867,867,867,
584,584,584,584,584,584,584,584,584,584,584,584,584,584,584,584,1800,577,577,577,577,577,577,577,577,577,577,577,577,577,577,577,577,577,577,867,867,867,867,867,867,867,867,867,867,867,867,867,867,867,884,884,884,884,884,884,884,867,867,867,
584,584,584,584,584,584,584,584,584,584,584,584,584,584,584,584,1821,1792,577,577,577,577,577,577,577,577,577,577,577,577,577,577,577,577,577,867,867,867,867,867,867,867,867,867,867,867,867,867,867,867,884,884,884,884,884,884,884,867,867,867,
584,584,584,584,584,584,584,584,584,584,584,584,584,584,584,584,584,1821,1791,1792,577,577,577,577,577,577,577,577,577,577,577,577,577,577,577,867,867,867,867,867,867,867,867,867,867,867,867,867,867,867,884,884,884,884,884,884,884,867,867,867,
584,584,584,584,584,584,584,584,584,584,584,584,577,577,584,584,584,584,584,1821,1791,1792,577,577,577,577,577,577,577,577,577,577,577,577,577,867,867,867,867,867,867,867,867,867,867,867,867,867,867,867,884,884,884,884,884,884,884,867,867,867,
584,584,584,584,584,584,584,584,584,584,584,584,584,584,584,584,584,584,584,584,584,1821,1792,577,577,577,577,577,577,577,577,577,577,577,577,867,867,867,867,867,867,867,867,867,867,867,867,867,867,867,867,867,867,867,867,867,867,867,867,867
</data>
 </layer>
 <layer id="8" name="grass" width="60" height="60">
  <data encoding="csv">
0,0,0,0,0,0,0,0,0,0,0,0,0,0,0,0,0,0,0,0,0,0,0,5302,5303,5304,0,0,0,0,0,0,0,0,0,0,0,0,0,0,0,0,0,0,0,0,0,0,0,0,0,0,0,0,0,0,0,0,0,0,
0,0,0,0,0,0,0,0,0,0,0,0,0,0,0,0,0,0,0,0,0,0,0,5302,5317,5312,0,0,0,0,0,0,0,0,0,0,0,0,0,0,0,0,0,0,0,0,0,0,0,0,0,0,0,0,0,0,0,0,0,0,
0,0,0,0,0,0,0,0,0,0,0,0,0,0,0,0,0,0,0,0,0,0,0,5302,5304,0,0,0,0,0,637,641,0,0,0,0,0,0,0,0,0,0,0,0,0,0,0,0,0,0,0,0,0,0,0,0,0,0,0,0,
0,0,0,0,0,0,0,0,0,0,0,0,0,0,0,0,0,0,0,0,0,0,5294,5320,5312,0,0,0,0,0,0,0,0,0,0,0,0,0,0,0,0,0,0,0,0,0,0,0,0,0,0,0,0,0,0,0,0,0,0,0,
0,0,0,0,0,0,0,0,0,0,0,0,0,0,0,0,0,0,0,0,0,0,5313,5312,0,0,0,0,0,625,0,0,0,0,0,0,0,0,0,0,0,0,0,0,0,0,0,0,0,0,0,0,0,0,0,0,0,0,0,0,
0,0,0,0,0,0,0,0,0,0,0,0,0,0,0,0,0,0,0,0,0,0,5301,0,0,0,0,0,0,0,0,0,0,0,0,0,0,0,0,0,0,0,0,0,0,0,0,0,0,0,0,0,0,0,0,0,0,0,0,0,
0,0,0,0,0,0,0,0,0,0,0,0,0,0,0,0,0,0,0,0,0,0,5309,0,0,0,0,0,0,0,0,626,0,0,0,642,0,0,0,0,0,0,0,0,0,0,0,0,0,0,0,0,0,0,0,0,0,0,0,0,
0,0,0,0,0,0,0,0,0,0,0,0,0,0,0,0,0,0,0,0,0,0,0,0,0,0,0,0,0,637,0,0,0,0,0,0,0,0,0,0,0,0,0,0,0,0,0,0,0,0,0,0,0,0,0,0,0,0,0,0,
0,0,0,0,0,0,0,0,0,0,0,0,0,0,0,0,0,0,0,0,0,0,0,0,0,0,0,0,0,0,0,0,625,0,0,0,0,0,0,0,0,0,0,0,0,0,0,0,0,0,0,0,0,0,0,0,0,0,0,0,
0,0,0,0,0,0,0,0,0,0,0,0,0,0,0,0,0,0,0,0,0,0,5293,0,0,0,0,0,626,0,643,0,0,0,0,0,0,0,0,0,0,0,0,0,0,0,0,0,0,0,0,0,0,0,0,0,0,0,0,0,
0,0,0,0,0,0,0,0,0,0,0,0,0,0,0,0,0,0,0,0,0,5297,5312,0,0,0,640,0,0,0,0,0,0,0,0,0,0,0,0,0,0,0,0,0,0,0,0,0,0,0,0,0,0,0,0,0,0,0,0,0,
0,0,0,0,0,0,0,0,0,0,0,0,0,0,0,0,0,0,0,0,0,5309,0,0,0,0,648,0,0,637,0,0,0,0,0,0,0,0,0,0,0,0,0,0,0,0,0,0,0,0,0,0,0,0,0,0,0,0,0,0,
0,0,0,0,0,0,0,0,0,0,0,0,0,0,0,0,0,0,0,0,0,0,0,0,0,626,0,0,0,0,0,0,0,0,0,0,0,0,0,0,0,0,0,0,0,0,0,0,0,0,0,0,0,0,0,0,0,0,0,0,
0,0,0,0,0,0,0,0,0,0,0,0,0,0,0,0,0,0,0,0,5293,0,0,0,0,0,0,625,0,0,0,0,0,0,0,0,0,0,0,0,0,0,0,0,0,0,0,0,0,0,0,0,0,0,0,0,0,0,0,0,
0,0,0,0,0,0,0,0,0,0,0,0,0,0,0,0,0,0,0,5297,5312,0,0,0,0,0,0,0,0,0,0,0,0,0,0,0,0,0,0,0,0,0,0,0,0,0,0,0,0,0,0,0,0,0,0,0,0,0,0,0,
0,0,0,0,0,0,0,0,0,0,0,0,0,0,0,0,5294,5295,5295,5306,0,0,0,0,0,637,0,0,0,0,0,0,0,0,0,0,0,0,0,0,0,0,0,0,0,0,0,0,0,0,0,0,0,0,0,0,0,0,0,0,
0,0,0,0,0,0,0,0,0,0,0,0,0,0,5294,5295,5320,5311,5312,0,0,0,0,0,0,0,626,0,0,0,0,0,0,0,0,0,0,0,0,0,0,0,0,0,0,0,0,0,0,0,641,0,0,0,0,0,0,0,0,0,
0,0,0,0,0,0,0,0,0,0,0,0,0,5294,5326,5317,5312,0,0,0,0,0,0,0,625,0,0,0,0,0,0,0,0,0,0,0,0,0,0,0,0,0,0,0,0,0,0,0,0,0,0,0,0,0,0,0,0,0,0,0,
0,0,0,5289,0,0,0,0,0,0,0,0,5290,5324,5311,5312,0,0,0,0,0,0,0,0,0,0,0,0,0,0,0,0,0,0,0,0,0,0,0,0,0,641,0,0,0,0,0,0,0,0,0,0,0,0,0,0,0,0,0,0,
0,0,0,0,0,0,0,0,0,0,5290,5292,0,0,0,0,0,0,0,0,0,0,0,0,0,0,0,0,0,0,0,0,0,0,0,0,0,0,0,0,0,0,0,630,0,0,0,0,0,0,0,0,0,0,0,641,0,0,0,0,
0,0,0,0,0,0,0,0,0,0,0,0,0,0,0,0,0,0,0,0,0,0,0,0,0,0,0,0,0,0,0,0,0,0,0,0,0,0,0,0,0,0,0,0,0,0,0,0,0,0,0,0,0,0,0,0,0,0,0,0,
0,0,0,0,0,0,0,0,0,0,0,0,0,0,0,0,0,0,0,0,0,0,0,0,0,0,0,0,0,0,0,0,0,0,0,0,0,0,0,0,0,0,0,0,0,0,0,0,0,0,0,0,0,0,0,0,0,0,0,642,
0,0,0,0,0,0,0,0,0,0,0,0,0,0,0,0,0,0,0,0,0,0,0,0,0,0,0,0,0,0,0,0,0,0,0,0,0,0,0,0,0,0,0,0,0,0,0,0,0,0,0,0,0,0,0,0,0,0,643,0,
0,0,0,0,0,0,0,0,0,0,0,0,0,0,0,0,0,0,0,0,0,0,0,0,0,629,0,0,0,0,0,0,0,0,0,0,0,0,0,0,0,0,0,0,629,0,0,0,0,0,0,0,0,0,630,0,0,0,0,0,
0,0,0,0,0,0,0,0,0,0,0,0,0,0,0,0,0,0,0,0,0,0,629,0,0,0,0,0,0,0,0,0,0,0,0,0,0,0,0,0,0,0,0,0,0,0,0,0,0,0,0,0,0,0,0,0,0,0,0,0,
0,0,0,0,0,0,0,0,0,0,0,0,0,0,0,0,0,0,0,0,0,0,0,0,0,0,0,0,0,0,0,0,0,0,0,0,0,0,0,0,0,0,0,0,0,0,0,0,0,0,0,0,630,0,0,0,0,0,0,0,
0,0,0,0,0,0,0,0,0,0,0,0,0,0,0,0,0,0,0,0,0,0,0,0,0,0,0,0,629,0,0,0,0,0,0,0,0,0,0,0,0,0,0,0,0,0,0,0,0,0,0,0,0,0,0,0,0,0,0,0,
0,0,0,0,0,0,0,0,0,0,0,0,0,0,0,0,0,0,0,0,0,0,0,0,0,0,0,0,0,0,0,0,0,0,629,0,0,0,0,0,0,0,0,0,0,0,0,0,0,0,0,0,0,0,0,0,0,0,0,0,
0,0,0,0,0,0,0,0,0,0,0,0,0,0,0,0,0,0,0,0,0,0,0,0,0,0,0,0,0,0,0,0,0,0,0,0,0,0,0,0,0,0,0,0,0,0,0,0,0,0,0,0,0,0,0,0,0,0,0,0,
0,0,0,0,0,0,0,0,0,0,0,0,0,0,0,0,0,0,0,0,0,0,0,0,0,0,0,0,0,0,0,0,0,0,0,0,0,0,0,0,0,0,629,0,0,0,0,0,0,0,0,0,0,0,0,0,0,0,0,0,
0,0,0,0,0,0,0,0,0,0,0,0,0,0,0,0,0,0,0,0,0,0,0,0,0,0,0,0,0,0,0,0,0,0,0,0,0,0,0,0,0,0,0,0,0,0,0,0,0,0,0,0,0,0,0,0,0,0,0,0,
0,0,0,0,0,0,0,0,0,0,0,0,0,0,0,0,0,0,0,0,0,0,0,0,0,0,0,0,0,0,0,0,0,0,0,0,0,0,0,0,0,0,0,0,0,0,0,0,0,0,0,0,0,0,0,0,0,0,0,0,
0,0,0,0,0,0,0,0,0,0,0,0,0,0,0,0,0,0,0,0,0,0,0,0,0,0,0,0,0,0,0,0,0,0,0,0,0,0,0,0,0,0,0,0,0,0,0,0,0,629,0,0,0,0,0,0,0,0,0,0,
0,0,0,0,0,0,0,0,0,0,0,0,0,0,0,0,0,0,0,0,0,0,0,0,0,0,0,0,0,0,0,0,0,0,0,0,0,0,0,0,0,0,0,0,0,0,0,0,0,0,0,0,0,0,0,0,0,0,0,0,
0,0,0,0,0,0,0,0,0,0,0,0,0,0,0,0,0,0,0,0,0,0,0,0,0,0,0,0,0,0,0,0,0,0,0,0,0,0,0,0,629,0,0,0,0,0,0,0,0,0,0,0,0,0,629,0,0,0,0,0,
0,0,0,0,0,0,0,0,0,0,0,0,0,0,0,0,0,0,0,0,0,0,0,0,0,0,0,0,0,0,0,0,0,0,0,0,0,0,0,0,0,0,0,0,0,0,0,0,0,0,0,0,0,0,0,0,0,0,0,630,
0,0,0,0,0,0,0,0,0,0,0,0,0,0,0,0,0,0,0,0,0,0,0,0,0,0,0,0,0,0,0,0,0,0,0,0,629,0,0,0,0,0,0,0,0,0,629,0,0,0,0,0,0,0,0,0,0,0,0,0,
0,0,0,0,0,0,0,0,0,0,0,0,0,0,0,0,0,0,0,0,0,0,0,0,0,0,0,0,0,0,0,0,0,0,0,0,0,0,0,0,0,0,0,0,0,0,0,0,0,0,0,0,0,0,0,0,0,0,0,0,
0,0,0,0,0,0,0,0,0,0,0,0,0,0,0,0,0,0,0,0,0,0,0,0,0,0,0,0,0,0,0,0,0,0,0,0,0,0,0,0,0,0,0,0,0,0,0,0,0,0,0,0,0,0,0,0,0,0,0,0,
0,0,0,0,0,0,0,0,0,0,0,0,0,0,0,0,0,0,0,0,0,0,0,0,0,0,0,0,0,0,0,0,0,0,0,0,0,0,0,0,0,0,0,0,0,0,0,0,0,0,0,0,0,0,0,0,0,0,0,0,
0,0,0,0,0,0,0,0,0,0,0,0,0,0,0,0,0,0,0,0,0,0,0,0,0,0,0,0,0,0,0,0,0,0,0,0,0,0,0,0,0,0,0,0,0,0,0,0,0,0,0,0,0,0,0,0,0,0,0,0,
0,0,0,0,0,0,0,0,0,0,0,0,0,0,0,0,0,0,0,0,0,0,0,0,0,0,0,0,0,0,0,0,0,0,0,0,0,0,0,0,0,0,0,0,0,0,0,0,0,0,0,0,0,0,0,0,0,0,0,0,
0,0,0,0,0,0,0,0,0,0,0,0,0,0,0,0,0,0,0,5246,5247,5248,0,0,0,0,0,0,0,0,0,0,0,0,0,0,0,0,0,0,0,0,0,0,0,0,0,0,0,0,0,0,0,0,0,0,0,0,0,0,
0,0,0,0,0,0,0,0,0,0,0,0,0,0,0,0,0,0,5246,5278,5255,5277,5248,0,0,0,0,0,0,0,0,0,0,0,0,0,0,0,0,0,0,0,0,0,0,0,0,0,0,0,0,0,0,0,0,0,0,0,0,0,
0,0,0,0,0,0,0,0,0,0,0,0,0,0,0,0,0,5246,5278,5255,5255,5269,5264,0,0,0,0,0,0,0,0,0,0,0,0,0,0,0,0,0,0,0,0,0,0,0,0,0,0,0,0,0,0,0,0,0,0,0,0,0,
0,0,0,0,0,0,0,0,0,0,0,0,0,0,0,0,0,5262,5263,5270,5269,5264,0,0,0,0,0,0,0,0,0,0,0,0,0,0,0,0,0,0,0,0,0,0,0,0,0,0,0,0,0,0,0,0,0,0,0,0,0,0,
0,0,0,0,0,0,0,0,0,0,0,0,0,0,0,0,0,0,0,5262,5264,0,0,0,0,0,0,0,0,0,0,0,0,0,0,0,0,0,0,0,0,0,0,0,0,0,0,0,0,0,0,0,0,0,0,0,0,0,0,0,
0,0,0,0,0,0,0,0,0,0,0,0,0,0,0,0,0,0,0,0,0,0,0,0,0,0,0,0,0,0,0,0,0,0,0,0,0,0,0,0,0,0,0,0,0,0,0,0,0,0,0,0,0,0,0,0,0,0,0,0,
0,0,0,0,0,0,0,0,0,0,0,0,0,0,0,0,0,0,0,0,0,0,0,0,0,0,0,0,0,0,0,0,0,0,0,0,0,0,0,0,0,0,0,0,0,0,0,0,0,0,0,0,0,0,0,0,0,0,0,0,
0,0,0,0,0,0,0,0,0,0,0,0,0,0,0,0,0,0,0,0,0,0,0,0,0,0,0,0,0,0,0,0,0,0,0,0,0,0,0,0,0,0,0,0,0,0,0,0,0,0,0,0,0,0,0,0,0,0,0,0,
0,0,0,0,0,0,0,0,0,0,0,0,0,0,0,0,0,0,0,0,0,0,0,0,0,0,0,0,0,0,0,0,0,0,0,0,0,0,0,0,0,0,0,0,0,0,0,0,0,0,0,0,0,0,0,0,0,0,0,0,
0,0,0,0,0,0,0,0,0,0,0,0,0,0,0,0,0,0,0,0,0,0,0,0,0,0,0,0,0,0,0,0,0,0,0,0,0,0,0,0,0,0,0,0,0,0,0,0,0,0,0,0,0,0,0,0,0,0,0,0,
0,0,0,0,0,0,0,0,0,0,0,0,0,0,0,0,0,0,0,0,0,0,0,0,0,0,0,0,0,0,0,0,0,0,0,0,0,0,0,0,0,0,0,0,0,0,0,0,0,0,0,0,0,0,0,0,0,0,0,0,
0,0,0,0,0,0,0,0,0,0,0,0,0,0,0,0,0,0,0,0,0,0,0,0,0,0,0,0,0,0,0,0,0,0,0,0,0,0,0,0,0,0,0,0,0,0,0,0,0,0,0,0,0,0,0,0,0,0,0,0,
0,0,0,0,0,0,0,0,0,0,0,0,0,0,0,0,0,0,0,0,0,0,0,0,0,0,0,0,0,0,0,0,0,0,0,0,0,0,0,0,0,0,0,0,0,0,0,0,0,0,0,0,0,0,0,0,0,0,0,0,
0,0,0,0,0,0,0,0,0,0,0,0,0,0,0,0,0,0,0,0,0,0,0,0,0,0,0,0,0,0,0,0,0,0,0,0,0,0,0,0,0,0,0,0,0,0,0,0,0,0,0,0,0,0,0,0,0,0,0,0,
0,0,0,0,0,0,0,0,0,0,0,0,0,0,0,0,0,0,0,0,0,0,0,0,0,0,0,0,0,0,0,0,0,0,0,0,0,0,0,0,0,0,0,0,0,0,0,0,0,0,0,0,0,0,0,0,0,0,0,0,
0,0,0,0,0,0,0,0,0,0,0,0,0,0,0,0,0,0,0,0,0,0,0,0,0,0,0,0,0,0,0,0,0,0,0,0,0,0,0,0,0,0,0,0,0,0,0,0,0,0,0,0,0,0,0,0,0,0,0,0,
0,0,0,0,0,0,0,0,0,0,0,0,0,0,0,0,0,0,0,0,0,0,0,0,0,0,0,0,0,0,0,0,0,0,0,0,0,0,0,0,0,0,0,0,0,0,0,0,0,0,0,0,0,0,0,0,0,0,0,0,
0,0,0,0,0,0,0,0,0,0,0,0,0,0,0,0,0,0,0,0,0,0,0,0,0,0,0,0,0,0,0,0,0,0,0,0,0,0,0,0,0,0,0,0,0,0,0,0,0,0,0,0,0,0,0,0,0,0,0,0
</data>
 </layer>
 <layer id="12" name="farm" width="60" height="60">
  <data encoding="csv">
0,0,0,0,0,0,0,0,0,0,0,0,0,0,0,0,0,0,0,0,0,0,0,0,0,0,0,0,0,0,0,0,0,0,0,0,0,0,0,0,0,0,0,0,0,0,0,0,0,0,0,0,0,0,0,0,0,0,0,0,
0,0,0,0,0,0,0,0,0,0,0,0,0,0,0,0,0,0,0,0,0,0,0,0,0,0,0,0,0,0,0,0,0,0,0,0,0,0,0,0,0,0,0,0,0,0,0,0,0,0,0,0,0,0,0,0,0,0,0,0,
0,0,0,0,0,0,0,0,0,0,0,0,0,0,0,0,0,0,0,0,0,0,0,0,0,0,0,0,0,0,0,0,0,0,0,0,0,0,0,0,0,0,0,0,0,0,0,0,0,0,0,0,0,0,0,0,0,0,0,0,
0,755,761,761,761,761,761,756,0,0,0,0,0,0,0,0,0,0,0,0,0,0,0,0,0,0,0,0,0,0,0,0,0,0,0,0,0,0,0,0,0,0,0,0,0,0,0,0,0,0,0,0,0,0,0,0,0,0,0,0,
0,753,729,730,730,730,731,753,0,0,0,0,0,0,0,0,0,0,0,0,0,0,0,0,0,0,0,0,0,0,0,0,0,0,0,0,0,0,0,0,0,0,0,0,0,0,0,0,0,0,0,0,0,0,0,0,0,0,0,0,
0,753,737,738,738,738,739,762,0,0,0,0,0,0,0,0,0,0,0,0,0,0,0,0,0,0,0,0,0,0,0,0,0,0,0,0,0,0,0,0,0,0,0,0,0,0,0,0,0,0,0,0,0,0,0,0,0,0,0,0,
0,753,737,738,738,738,739,0,0,0,0,0,0,0,0,0,0,0,0,0,0,0,0,0,0,0,0,0,0,0,0,0,0,0,0,0,0,0,0,0,0,0,0,0,0,0,0,0,0,0,0,0,0,0,0,0,0,0,0,0,
0,753,737,738,738,738,739,0,0,0,0,0,0,0,0,0,0,0,0,0,0,0,0,0,0,0,0,0,0,0,0,0,0,0,0,0,0,0,0,0,0,0,0,0,0,0,0,0,0,0,0,0,0,0,0,0,0,0,0,0,
0,753,745,746,746,746,747,0,0,0,0,0,0,0,0,0,0,0,0,0,0,0,0,0,0,0,0,0,0,0,0,0,0,0,0,0,0,0,0,0,0,0,0,0,0,0,0,0,0,0,0,0,0,0,0,0,0,0,0,0,
0,763,761,761,761,761,757,0,0,0,0,0,0,0,0,0,0,0,0,0,0,0,0,0,0,0,0,0,0,0,0,0,0,0,0,0,0,0,0,0,0,0,0,0,0,0,0,0,0,0,0,0,0,0,0,0,0,0,0,0,
0,0,0,0,0,0,0,0,0,0,0,0,0,0,0,0,0,0,0,0,0,0,0,0,0,0,0,0,0,0,0,0,0,0,0,0,0,0,0,0,0,0,0,0,0,0,0,0,0,0,0,0,0,0,0,0,0,0,0,0,
0,0,0,0,0,0,0,0,0,0,0,0,0,0,0,0,0,0,0,0,0,0,0,0,0,0,0,0,0,0,0,0,0,0,0,0,0,0,0,0,0,0,0,0,0,0,0,0,0,0,0,0,0,0,0,0,0,0,0,0,
0,0,0,0,0,0,0,0,0,0,0,0,0,0,0,0,0,0,0,0,0,0,0,0,0,0,0,0,0,0,0,0,0,0,0,0,0,0,0,0,0,0,0,0,0,0,0,0,0,0,0,0,0,0,0,0,0,0,0,0,
0,0,0,0,0,0,0,0,0,0,0,0,0,0,0,0,0,0,0,0,0,0,0,0,0,0,0,0,0,0,0,0,0,0,0,0,0,0,0,0,0,0,0,0,0,0,0,0,0,0,0,0,0,0,0,0,0,0,0,0,
0,0,0,0,0,0,0,0,0,0,0,0,0,0,0,0,0,0,0,0,0,0,0,0,0,0,0,0,0,0,0,0,0,0,0,0,0,0,0,0,0,0,0,0,0,0,0,0,0,0,0,0,0,0,0,0,0,0,0,0,
0,0,0,0,0,0,0,0,0,0,0,0,0,0,0,0,0,0,0,0,0,0,0,0,0,0,0,0,0,0,0,0,0,0,0,0,0,0,0,0,0,0,0,0,0,0,0,0,0,0,0,0,0,0,0,0,0,0,0,0,
0,0,0,0,0,0,0,0,0,0,0,0,0,0,0,0,0,0,0,0,0,0,0,0,0,0,0,0,0,0,0,0,0,0,0,0,0,0,0,0,0,0,0,0,0,0,0,0,0,0,0,0,0,0,0,0,0,0,0,0,
0,0,0,0,0,0,0,0,0,0,0,0,0,0,0,0,0,0,0,0,0,0,0,0,0,0,0,0,0,0,0,0,0,0,0,0,0,0,0,0,0,0,0,0,0,0,0,0,0,0,0,0,0,0,0,0,0,0,0,0,
0,0,0,0,0,0,0,0,0,0,0,0,0,0,0,0,0,0,0,0,0,0,0,0,0,0,0,0,0,0,0,0,0,0,0,0,0,0,0,0,0,0,0,0,0,0,0,0,0,0,0,0,0,0,0,0,0,0,0,0,
0,0,0,0,0,0,0,0,0,0,0,0,0,0,0,0,0,0,0,0,0,0,0,0,0,0,0,0,0,0,0,0,0,0,0,0,0,0,0,0,0,0,0,0,0,0,0,0,0,0,0,0,0,0,0,0,0,0,0,0,
0,0,0,0,0,0,0,0,0,0,0,0,0,0,0,0,0,0,0,0,0,0,0,0,0,0,0,0,0,0,0,0,0,0,0,0,0,0,0,0,0,0,0,0,0,0,0,0,0,0,0,0,0,0,0,0,0,0,0,0,
0,0,0,0,0,0,0,0,0,0,0,0,0,0,0,0,0,0,0,0,0,0,0,0,0,0,0,0,0,0,0,0,0,0,0,0,0,0,0,0,0,0,0,0,0,0,0,0,0,0,0,0,0,0,0,0,0,0,0,0,
0,0,0,0,0,0,0,0,0,0,0,0,0,0,0,0,0,0,0,0,0,0,0,0,0,0,0,0,0,0,0,0,0,0,0,0,0,0,0,0,0,0,0,0,0,0,0,0,0,0,0,0,0,0,0,0,0,0,0,0,
0,0,0,0,0,0,0,0,0,0,0,0,0,0,0,0,0,0,0,0,0,0,0,0,0,0,0,0,0,0,0,0,0,0,0,0,0,0,0,0,0,0,0,0,0,0,0,0,0,0,0,0,0,0,0,0,0,0,0,0,
0,0,0,0,0,0,0,0,0,0,0,0,0,0,0,0,0,0,0,0,0,0,0,0,0,0,0,0,0,0,0,0,0,0,0,0,0,0,0,0,0,0,0,0,0,0,0,0,0,0,0,0,0,0,0,0,0,0,0,0,
0,0,0,0,0,0,0,0,0,0,0,0,0,0,0,0,0,0,0,0,0,0,0,0,0,0,0,0,0,0,0,0,0,0,0,0,0,0,0,0,0,0,0,0,0,0,0,0,0,0,0,0,0,0,0,0,0,0,0,0,
0,0,0,0,0,0,0,0,0,0,0,0,0,0,0,0,0,0,0,0,0,0,0,0,0,0,0,0,0,0,0,0,0,0,0,0,0,0,0,0,0,0,0,0,0,0,0,0,0,0,0,0,0,0,0,0,0,0,0,0,
0,0,0,0,0,0,0,0,0,0,0,0,0,0,0,0,0,0,0,0,0,0,0,0,0,0,0,0,0,0,0,0,0,0,0,0,0,0,0,0,0,0,0,0,0,0,0,0,0,0,0,0,0,0,0,0,0,0,0,0,
0,0,0,0,0,0,0,0,0,0,0,0,0,0,0,0,0,0,0,0,0,0,0,0,0,0,0,0,0,0,0,0,0,0,0,0,0,0,0,0,0,0,0,0,0,0,0,0,0,0,0,0,0,0,0,0,0,0,0,0,
0,0,0,0,0,0,0,0,0,0,0,0,0,0,0,0,0,0,0,0,0,0,0,0,0,0,0,0,0,0,0,0,0,0,0,0,0,0,0,0,0,0,0,0,0,0,0,0,0,0,0,0,0,0,0,0,0,0,0,0,
0,0,0,0,0,0,0,0,0,0,0,0,0,0,0,0,0,0,0,0,0,0,0,0,0,0,0,0,0,0,0,0,0,0,0,0,0,0,0,0,0,0,0,0,0,0,0,0,0,0,0,0,0,0,0,0,0,0,0,0,
0,0,0,0,0,0,0,0,0,0,0,0,0,0,0,0,0,0,0,0,0,0,0,0,0,0,0,0,0,0,0,0,0,0,0,0,0,0,0,0,0,0,0,0,0,0,0,0,0,0,0,0,0,0,0,0,0,0,0,0,
0,0,0,0,0,0,0,0,0,0,0,0,0,0,0,0,0,0,0,0,0,0,0,0,0,0,0,0,0,0,0,0,0,0,0,0,0,0,0,0,0,0,0,0,0,0,0,0,0,0,0,0,0,0,0,0,0,0,0,0,
0,0,0,0,0,0,0,0,0,0,0,0,0,0,0,0,0,0,0,0,0,0,0,0,0,0,0,0,0,0,0,0,0,0,0,0,0,0,0,0,0,0,0,0,0,0,0,0,0,0,0,0,0,0,0,0,0,0,0,0,
0,0,0,0,0,0,0,0,0,0,0,0,0,0,0,0,0,0,0,0,0,0,0,0,0,0,0,0,0,0,0,0,0,0,0,0,0,0,0,0,0,0,0,0,0,0,0,0,0,0,0,0,0,0,0,0,0,0,0,0,
0,0,0,0,0,0,0,0,0,0,0,0,0,0,0,0,0,0,0,0,0,0,0,0,0,0,0,0,0,0,0,0,0,0,0,0,0,0,0,0,0,0,0,0,0,0,0,0,0,0,0,0,0,0,0,0,0,0,0,0,
0,0,0,0,0,0,0,0,0,0,0,0,0,0,0,0,0,0,0,0,0,0,0,0,0,0,0,0,0,0,0,0,0,0,0,0,0,0,0,0,0,0,0,0,0,0,0,0,0,0,0,0,0,0,0,0,0,0,0,0,
0,0,0,0,0,0,0,0,0,0,0,0,0,0,0,0,0,0,0,0,0,0,0,0,0,0,0,0,0,0,0,0,0,0,0,0,0,0,0,0,0,0,0,0,0,0,0,0,0,0,0,0,0,0,0,0,0,0,0,0,
0,0,0,0,0,0,0,0,0,0,0,0,0,0,0,0,0,0,0,0,0,0,0,0,0,0,0,0,0,0,0,0,0,0,0,0,0,0,0,0,0,0,0,0,0,0,0,0,0,0,0,0,0,0,0,0,0,0,0,0,
0,0,0,0,0,0,0,0,0,0,0,0,0,0,0,0,0,0,0,0,0,0,0,0,0,0,0,0,0,0,0,0,0,0,0,0,0,0,0,0,0,0,0,0,0,0,0,0,0,0,0,0,0,0,0,0,0,0,0,0,
0,0,0,0,0,0,0,0,0,0,0,0,0,0,0,0,0,0,0,0,0,0,0,0,0,0,0,0,0,0,0,0,0,0,0,0,0,0,0,0,0,0,0,0,0,0,0,0,0,0,0,0,0,0,0,0,0,0,0,0,
0,0,0,0,0,0,0,0,0,0,0,0,0,0,0,0,0,0,0,0,0,0,0,0,0,0,0,0,0,0,0,0,0,0,0,0,0,0,0,0,0,0,0,0,0,0,0,0,0,0,0,0,0,0,0,0,0,0,0,0,
0,0,0,0,0,0,0,0,0,0,0,0,0,0,0,0,0,0,0,0,0,0,0,0,0,0,0,0,0,0,0,0,0,0,0,0,0,0,0,0,0,0,0,0,0,0,0,0,0,0,0,0,0,0,0,0,0,0,0,0,
0,0,0,0,0,0,0,0,0,0,0,0,0,0,0,0,0,0,0,0,0,0,0,0,0,0,0,0,0,0,0,0,0,0,0,0,0,0,0,0,0,0,0,0,0,0,0,0,0,0,0,0,0,0,0,0,0,0,0,0,
0,0,0,0,0,0,0,0,0,0,0,0,0,0,0,0,0,0,0,0,0,0,0,0,0,0,0,0,0,0,0,0,0,0,0,0,0,0,0,0,0,0,0,0,0,0,0,0,0,0,0,0,0,0,0,0,0,0,0,0,
0,0,0,0,0,0,0,0,0,0,0,0,0,0,0,0,0,0,0,0,0,0,0,0,0,0,0,0,0,0,0,0,0,0,0,0,0,0,0,0,0,0,0,0,0,0,0,0,0,0,0,0,0,0,0,0,0,0,0,0,
0,0,0,0,0,0,0,0,0,0,0,0,0,0,0,0,0,0,0,0,0,0,0,0,0,0,0,0,0,0,0,0,0,0,0,0,0,0,0,0,0,0,0,0,0,0,0,0,0,0,0,0,0,0,0,0,0,0,0,0,
0,0,0,0,0,0,0,0,0,0,0,0,0,0,0,0,0,0,0,0,0,0,0,0,0,0,0,0,0,0,0,0,0,0,0,0,0,0,0,0,0,0,0,0,0,0,0,0,0,0,0,0,0,0,0,0,0,0,0,0,
0,0,0,0,0,0,0,0,0,0,0,0,0,0,0,0,0,0,0,0,0,0,0,0,0,0,0,0,0,0,0,0,0,0,0,0,0,0,0,0,0,0,0,0,0,0,0,0,0,0,0,0,0,0,0,0,0,0,0,0,
0,0,0,0,0,0,0,0,0,0,0,0,0,0,0,0,0,0,0,0,0,0,0,0,0,0,0,0,0,0,0,0,0,0,0,0,0,0,0,0,0,0,0,0,0,0,0,0,0,0,0,0,0,0,0,0,0,0,0,0,
0,0,0,0,0,0,0,0,0,0,0,0,0,0,0,0,0,0,0,0,0,0,0,0,0,0,0,0,0,0,0,0,0,0,0,0,0,0,0,0,0,0,0,0,0,0,0,0,0,0,0,0,0,0,0,0,0,0,0,0,
0,0,0,0,0,0,0,0,0,0,0,0,0,0,0,0,0,0,0,0,0,0,0,0,0,0,0,0,0,0,0,0,0,0,0,0,0,0,0,0,0,0,0,0,0,0,0,0,0,0,0,0,0,0,0,0,0,0,0,0,
0,0,0,0,0,0,0,0,0,0,0,0,0,0,0,0,0,0,0,0,0,0,0,0,0,0,0,0,0,0,0,0,0,0,0,0,0,0,0,0,0,0,0,0,0,0,0,0,0,0,0,0,0,0,0,0,0,0,0,0,
0,0,0,0,0,0,0,0,0,0,0,0,0,0,0,0,0,0,0,0,0,0,0,0,0,0,0,0,0,0,0,0,0,0,0,0,0,0,0,0,0,0,0,0,0,0,0,0,0,0,0,0,0,0,0,0,0,0,0,0,
0,0,0,0,0,0,0,0,0,0,0,0,0,0,0,0,0,0,0,0,0,0,0,0,0,0,0,0,0,0,0,0,0,0,0,0,0,0,0,0,0,0,0,0,0,0,0,0,0,0,0,0,0,0,0,0,0,0,0,0,
0,0,0,0,0,0,0,0,0,0,0,0,0,0,0,0,0,0,0,0,0,0,0,0,0,0,0,0,0,0,0,0,0,0,0,0,0,0,0,0,0,0,0,0,0,0,0,0,0,0,0,0,0,0,0,0,0,0,0,0,
0,0,0,0,0,0,0,0,0,0,0,0,0,0,0,0,0,0,0,0,0,0,0,0,0,0,0,0,0,0,0,0,0,0,0,0,0,0,0,0,0,0,0,0,0,0,0,0,0,0,0,0,0,0,0,0,0,0,0,0,
0,0,0,0,0,0,0,0,0,0,0,0,0,0,0,0,0,0,0,0,0,0,0,0,0,0,0,0,0,0,0,0,0,0,0,0,0,0,0,0,0,0,0,0,0,0,0,0,0,0,0,0,0,0,0,0,0,0,0,0,
0,0,0,0,0,0,0,0,0,0,0,0,0,0,0,0,0,0,0,0,0,0,0,0,0,0,0,0,0,0,0,0,0,0,0,0,0,0,0,0,0,0,0,0,0,0,0,0,0,0,0,0,0,0,0,0,0,0,0,0,
0,0,0,0,0,0,0,0,0,0,0,0,0,0,0,0,0,0,0,0,0,0,0,0,0,0,0,0,0,0,0,0,0,0,0,0,0,0,0,0,0,0,0,0,0,0,0,0,0,0,0,0,0,0,0,0,0,0,0,0
</data>
 </layer>
 <layer id="13" name="farm_up" width="60" height="60">
  <data encoding="csv">
0,0,0,0,0,0,0,0,0,0,0,0,0,0,0,0,0,0,0,0,0,0,0,0,0,0,0,0,0,0,0,0,0,0,0,0,0,0,0,0,0,0,0,0,0,0,0,0,0,0,0,0,0,0,0,0,0,0,0,0,
0,0,0,0,0,0,0,0,0,0,0,0,0,0,0,0,0,0,0,0,0,0,0,0,0,0,0,0,0,0,0,0,0,0,0,0,0,0,0,0,0,0,0,0,0,0,0,0,0,0,0,0,0,0,0,0,0,0,0,0,
0,0,0,0,0,0,0,0,0,0,0,0,0,0,0,0,0,0,0,0,0,0,0,0,0,0,0,0,0,0,0,0,0,0,0,0,0,0,0,0,0,0,0,0,0,0,0,0,0,0,0,0,0,0,0,0,0,0,0,0,
0,0,732,734,734,734,734,0,0,0,0,0,0,0,0,0,0,0,0,0,0,0,0,0,0,0,0,0,0,0,0,0,0,0,0,0,0,0,0,0,0,0,0,0,0,0,0,0,0,0,0,0,0,0,0,0,0,0,0,0,
0,0,740,742,742,742,742,0,0,0,0,0,0,0,0,0,0,0,0,0,0,0,0,0,0,0,0,0,0,0,0,0,0,0,0,0,0,0,0,0,0,0,0,0,0,0,0,0,0,0,0,0,0,0,0,0,0,0,0,0,
0,0,743,750,750,750,750,0,0,0,0,0,0,0,0,0,0,0,0,0,0,0,0,0,0,0,0,0,0,0,0,0,0,0,0,0,0,0,0,0,0,0,0,0,0,0,0,0,0,0,0,0,0,0,0,0,0,0,0,0,
0,0,743,743,743,743,743,1451,0,0,0,0,0,0,0,0,0,0,0,0,0,0,0,0,0,0,0,0,0,0,0,0,0,0,0,0,0,0,0,0,0,0,0,0,0,0,0,0,0,0,0,0,0,0,0,0,0,0,0,0,
0,0,752,752,752,752,752,0,0,0,0,0,0,0,0,0,0,0,0,0,0,0,0,0,0,0,0,0,0,0,0,0,0,0,0,0,0,0,0,0,0,0,0,0,0,0,0,0,0,0,0,0,0,0,0,0,0,0,0,0,
0,0,744,744,744,744,744,0,0,0,0,0,0,0,0,0,0,0,0,0,0,0,0,0,0,0,0,0,0,0,0,0,0,0,0,0,0,0,0,0,0,0,0,0,0,0,0,0,0,0,0,0,0,0,0,0,0,0,0,0,
0,0,0,0,0,0,0,0,0,0,0,0,0,0,0,0,0,0,0,0,0,0,0,0,0,0,0,0,0,0,0,0,0,0,0,0,0,0,0,0,0,0,0,0,0,0,0,0,0,0,0,0,0,0,0,0,0,0,0,0,
0,0,1450,1450,0,0,0,0,0,0,0,0,0,0,0,0,0,0,0,0,0,0,0,0,0,0,0,0,0,0,0,0,0,0,0,0,0,0,0,0,0,0,0,0,0,0,0,0,0,0,0,0,0,0,0,0,0,0,0,0,
0,0,0,0,0,0,0,0,0,0,0,0,0,0,0,0,0,0,0,0,0,0,0,0,0,0,0,0,0,0,0,0,0,0,0,0,0,0,0,0,0,0,0,0,0,0,0,0,0,0,0,0,0,0,0,0,0,0,0,0,
0,0,0,0,0,0,0,0,0,0,0,0,0,0,0,0,0,0,0,0,0,0,0,0,0,0,0,0,0,0,0,0,0,0,0,0,0,0,0,0,0,0,0,0,0,0,0,0,0,0,0,0,0,0,0,0,0,0,0,0,
0,0,0,0,0,0,0,0,0,0,0,0,0,0,0,0,0,0,0,0,0,0,0,0,0,0,0,0,0,0,0,0,0,0,0,0,0,0,0,0,0,0,0,0,0,0,0,0,0,0,0,0,0,0,0,0,0,0,0,0,
0,0,0,0,0,0,0,0,0,0,0,0,0,0,0,0,0,0,0,0,0,0,0,0,0,0,0,0,0,0,0,0,0,0,0,0,0,0,0,0,0,0,0,0,0,0,0,0,0,0,0,0,0,0,0,0,0,0,0,0,
0,0,0,0,0,0,0,0,0,0,0,0,0,0,0,0,0,0,0,0,0,0,0,0,0,0,0,0,0,0,0,0,0,0,0,0,0,0,0,0,0,0,0,0,0,0,0,0,0,0,0,0,0,0,0,0,0,0,0,0,
0,0,0,0,0,0,0,0,0,0,0,0,0,0,0,0,0,0,0,0,0,0,0,0,0,0,0,0,0,0,0,0,0,0,0,0,0,0,0,0,0,0,0,0,0,0,0,0,0,0,0,0,0,0,0,0,0,0,0,0,
0,0,0,0,0,0,0,0,0,0,0,0,0,0,0,0,0,0,0,0,0,0,0,0,0,0,0,0,0,0,0,0,0,0,0,0,0,0,0,0,0,0,0,0,0,0,0,0,0,0,0,0,0,0,0,0,0,0,0,0,
0,0,0,0,0,0,0,0,0,0,0,0,0,0,0,0,0,0,0,0,0,0,0,0,0,0,0,0,0,0,0,0,0,0,0,0,0,0,0,0,0,0,0,0,0,0,0,0,0,0,0,0,0,0,0,0,0,0,0,0,
0,0,0,0,0,0,0,0,0,0,0,0,0,0,0,0,0,0,0,0,0,0,0,0,0,0,0,0,0,0,0,0,0,0,0,0,0,0,0,0,0,0,0,0,0,0,0,0,0,0,0,0,0,0,0,0,0,0,0,0,
0,0,0,0,0,0,0,0,0,0,0,0,0,0,0,0,0,0,0,0,0,0,0,0,0,0,0,0,0,0,0,0,0,0,0,0,0,0,0,0,0,0,0,0,0,0,0,0,0,0,0,0,0,0,0,0,0,0,0,0,
0,0,0,0,0,0,0,0,0,0,0,0,0,0,0,0,0,0,0,0,0,0,0,0,0,0,0,0,0,0,0,0,0,0,0,0,0,0,0,0,0,0,0,0,0,0,0,0,0,0,0,0,0,0,0,0,0,0,0,0,
0,0,0,0,0,0,0,0,0,0,0,0,0,0,0,0,0,0,0,0,0,0,0,0,0,0,0,0,0,0,0,0,0,0,0,0,0,0,0,0,0,0,0,0,0,0,0,0,0,0,0,0,0,0,0,0,0,0,0,0,
0,0,0,0,0,0,0,0,0,0,0,0,0,0,0,0,0,0,0,0,0,0,0,0,0,0,0,0,0,0,0,0,0,0,0,0,0,0,0,0,0,0,0,0,0,0,0,0,0,0,0,0,0,0,0,0,0,0,0,0,
0,0,0,0,0,0,0,0,0,0,0,0,0,0,0,0,0,0,0,0,0,0,0,0,0,0,0,0,0,0,0,0,0,0,0,0,0,0,0,0,0,0,0,0,0,0,0,0,0,0,0,0,0,0,0,0,0,0,0,0,
0,0,0,0,0,0,0,0,0,0,0,0,0,0,0,0,0,0,0,0,0,0,0,0,0,0,0,0,0,0,0,0,0,0,0,0,0,0,0,0,0,0,0,0,0,0,0,0,0,0,0,0,0,0,0,0,0,0,0,0,
0,0,0,0,0,0,0,0,0,0,0,0,0,0,0,0,0,0,0,0,0,0,0,0,0,0,0,0,0,0,0,0,0,0,0,0,0,0,0,0,0,0,0,0,0,0,0,0,0,0,0,0,0,0,0,0,0,0,0,0,
0,0,0,0,0,0,0,0,0,0,0,0,0,0,0,0,0,0,0,0,0,0,0,0,0,0,0,0,0,0,0,0,0,0,0,0,0,0,0,0,0,0,0,0,0,0,0,0,0,0,0,0,0,0,0,0,0,0,0,0,
0,0,0,0,0,0,0,0,0,0,0,0,0,0,0,0,0,0,0,0,0,0,0,0,0,0,0,0,0,0,0,0,0,0,0,0,0,0,0,0,0,0,0,0,0,0,0,0,0,0,0,0,0,0,0,0,0,0,0,0,
0,0,0,0,0,0,0,0,0,0,0,0,0,0,0,0,0,0,0,0,0,0,0,0,0,0,0,0,0,0,0,0,0,0,0,0,0,0,0,0,0,0,0,0,0,0,0,0,0,0,0,0,0,0,0,0,0,0,0,0,
0,0,0,0,0,0,0,0,0,0,0,0,0,0,0,0,0,0,0,0,0,0,0,0,0,0,0,0,0,0,0,0,0,0,0,0,0,0,0,0,0,0,0,0,0,0,0,0,0,0,0,0,0,0,0,0,0,0,0,0,
0,0,0,0,0,0,0,0,0,0,0,0,0,0,0,0,0,0,0,0,0,0,0,0,0,0,0,0,0,0,0,0,0,0,0,0,0,0,0,0,0,0,0,0,0,0,0,0,0,0,0,0,0,0,0,0,0,0,0,0,
0,0,0,0,0,0,0,0,0,0,0,0,0,0,0,0,0,0,0,0,0,0,0,0,0,0,0,0,0,0,0,0,0,0,0,0,0,0,0,0,0,0,0,0,0,0,0,0,0,0,0,0,0,0,0,0,0,0,0,0,
0,0,0,0,0,0,0,0,0,0,0,0,0,0,0,0,0,0,0,0,0,0,0,0,0,0,0,0,0,0,0,0,0,0,0,0,0,0,0,0,0,0,0,0,0,0,0,0,0,0,0,0,0,0,0,0,0,0,0,0,
0,0,0,0,0,0,0,0,0,0,0,0,0,0,0,0,0,0,0,0,0,0,0,0,0,0,0,0,0,0,0,0,0,0,0,0,0,0,0,0,0,0,0,0,0,0,0,0,0,0,0,0,0,0,0,0,0,0,0,0,
0,0,0,0,0,0,0,0,0,0,0,0,0,0,0,0,0,0,0,0,0,0,0,0,0,0,0,0,0,0,0,0,0,0,0,0,0,0,0,0,0,0,0,0,0,0,0,0,0,0,0,0,0,0,0,0,0,0,0,0,
0,0,0,0,0,0,0,0,0,0,0,0,0,0,0,0,0,0,0,0,0,0,0,0,0,0,0,0,0,0,0,0,0,0,0,0,0,0,0,0,0,0,0,0,0,0,0,0,0,0,0,0,0,0,0,0,0,0,0,0,
0,0,0,0,0,0,0,0,0,0,0,0,0,0,0,0,0,0,0,0,0,0,0,0,0,0,0,0,0,0,0,0,0,0,0,0,0,0,0,0,0,0,0,0,0,0,0,0,0,0,0,0,0,0,0,0,0,0,0,0,
0,0,0,0,0,0,0,0,0,0,0,0,0,0,0,0,0,0,0,0,0,0,0,0,0,0,0,0,0,0,0,0,0,0,0,0,0,0,0,0,0,0,0,0,0,0,0,0,0,0,0,0,0,0,0,0,0,0,0,0,
0,0,0,0,0,0,0,0,0,0,0,0,0,0,0,0,0,0,0,0,0,0,0,0,0,0,0,0,0,0,0,0,0,0,0,0,0,0,0,0,0,0,0,0,0,0,0,0,0,0,0,0,0,0,0,0,0,0,0,0,
0,0,0,0,0,0,0,0,0,0,0,0,0,0,0,0,0,0,0,0,0,0,0,0,0,0,0,0,0,0,0,0,0,0,0,0,0,0,0,0,0,0,0,0,0,0,0,0,0,0,0,0,0,0,0,0,0,0,0,0,
0,0,0,0,0,0,0,0,0,0,0,0,0,0,0,0,0,0,0,0,0,0,0,0,0,0,0,0,0,0,0,0,0,0,0,0,0,0,0,0,0,0,0,0,0,0,0,0,0,0,0,0,0,0,0,0,0,0,0,0,
0,0,0,0,0,0,0,0,0,0,0,0,0,0,0,0,0,0,0,0,0,0,0,0,0,0,0,0,0,0,0,0,0,0,0,0,0,0,0,0,0,0,0,0,0,0,0,0,0,0,0,0,0,0,0,0,0,0,0,0,
0,0,0,0,0,0,0,0,0,0,0,0,0,0,0,0,0,0,0,0,0,0,0,0,0,0,0,0,0,0,0,0,0,0,0,0,0,0,0,0,0,0,0,0,0,0,0,0,0,0,0,0,0,0,0,0,0,0,0,0,
0,0,0,0,0,0,0,0,0,0,0,0,0,0,0,0,0,0,0,0,0,0,0,0,0,0,0,0,0,0,0,0,0,0,0,0,0,0,0,0,0,0,0,0,0,0,0,0,0,0,0,0,0,0,0,0,0,0,0,0,
0,0,0,0,0,0,0,0,0,0,0,0,0,0,0,0,0,0,0,0,0,0,0,0,0,0,0,0,0,0,0,0,0,0,0,0,0,0,0,0,0,0,0,0,0,0,0,0,0,0,0,0,0,0,0,0,0,0,0,0,
0,0,0,0,0,0,0,0,0,0,0,0,0,0,0,0,0,0,0,0,0,0,0,0,0,0,0,0,0,0,0,0,0,0,0,0,0,0,0,0,0,0,0,0,0,0,0,0,0,0,0,0,0,0,0,0,0,0,0,0,
0,0,0,0,0,0,0,0,0,0,0,0,0,0,0,0,0,0,0,0,0,0,0,0,0,0,0,0,0,0,0,0,0,0,0,0,0,0,0,0,0,0,0,0,0,0,0,0,0,0,0,0,0,0,0,0,0,0,0,0,
0,0,0,0,0,0,0,0,0,0,0,0,0,0,0,0,0,0,0,0,0,0,0,0,0,0,0,0,0,0,0,0,0,0,0,0,0,0,0,0,0,0,0,0,0,0,0,0,0,0,0,0,0,0,0,0,0,0,0,0,
0,0,0,0,0,0,0,0,0,0,0,0,0,0,0,0,0,0,0,0,0,0,0,0,0,0,0,0,0,0,0,0,0,0,0,0,0,0,0,0,0,0,0,0,0,0,0,0,0,0,0,0,0,0,0,0,0,0,0,0,
0,0,0,0,0,0,0,0,0,0,0,0,0,0,0,0,0,0,0,0,0,0,0,0,0,0,0,0,0,0,0,0,0,0,0,0,0,0,0,0,0,0,0,0,0,0,0,0,0,0,0,0,0,0,0,0,0,0,0,0,
0,0,0,0,0,0,0,0,0,0,0,0,0,0,0,0,0,0,0,0,0,0,0,0,0,0,0,0,0,0,0,0,0,0,0,0,0,0,0,0,0,0,0,0,0,0,0,0,0,0,0,0,0,0,0,0,0,0,0,0,
0,0,0,0,0,0,0,0,0,0,0,0,0,0,0,0,0,0,0,0,0,0,0,0,0,0,0,0,0,0,0,0,0,0,0,0,0,0,0,0,0,0,0,0,0,0,0,0,0,0,0,0,0,0,0,0,0,0,0,0,
0,0,0,0,0,0,0,0,0,0,0,0,0,0,0,0,0,0,0,0,0,0,0,0,0,0,0,0,0,0,0,0,0,0,0,0,0,0,0,0,0,0,0,0,0,0,0,0,0,0,0,0,0,0,0,0,0,0,0,0,
0,0,0,0,0,0,0,0,0,0,0,0,0,0,0,0,0,0,0,0,0,0,0,0,0,0,0,0,0,0,0,0,0,0,0,0,0,0,0,0,0,0,0,0,0,0,0,0,0,0,0,0,0,0,0,0,0,0,0,0,
0,0,0,0,0,0,0,0,0,0,0,0,0,0,0,0,0,0,0,0,0,0,0,0,0,0,0,0,0,0,0,0,0,0,0,0,0,0,0,0,0,0,0,0,0,0,0,0,0,0,0,0,0,0,0,0,0,0,0,0,
0,0,0,0,0,0,0,0,0,0,0,0,0,0,0,0,0,0,0,0,0,0,0,0,0,0,0,0,0,0,0,0,0,0,0,0,0,0,0,0,0,0,0,0,0,0,0,0,0,0,0,0,0,0,0,0,0,0,0,0,
0,0,0,0,0,0,0,0,0,0,0,0,0,0,0,0,0,0,0,0,0,0,0,0,0,0,0,0,0,0,0,0,0,0,0,0,0,0,0,0,0,0,0,0,0,0,0,0,0,0,0,0,0,0,0,0,0,0,0,0,
0,0,0,0,0,0,0,0,0,0,0,0,0,0,0,0,0,0,0,0,0,0,0,0,0,0,0,0,0,0,0,0,0,0,0,0,0,0,0,0,0,0,0,0,0,0,0,0,0,0,0,0,0,0,0,0,0,0,0,0,
0,0,0,0,0,0,0,0,0,0,0,0,0,0,0,0,0,0,0,0,0,0,0,0,0,0,0,0,0,0,0,0,0,0,0,0,0,0,0,0,0,0,0,0,0,0,0,0,0,0,0,0,0,0,0,0,0,0,0,0
</data>
 </layer>
 <layer id="6" name="water" width="60" height="60">
  <data encoding="csv">
0,0,0,0,0,0,0,0,0,0,0,0,0,0,0,0,0,0,0,0,0,0,0,0,0,0,2622,2623,2623,2624,0,0,0,0,0,0,0,0,0,0,0,0,0,0,0,0,0,0,0,0,0,0,0,0,0,0,0,0,0,0,
0,0,0,0,0,0,0,0,0,0,0,0,0,0,0,0,0,0,0,0,0,0,0,0,0,0,2622,2623,2749,2688,0,0,0,0,0,0,0,0,0,0,0,0,0,0,0,0,0,0,0,0,0,0,0,0,0,0,0,0,0,0,
0,0,0,0,0,0,0,0,0,0,0,0,0,0,0,0,0,0,0,0,0,0,0,0,0,0,2622,2623,2624,0,0,0,0,0,0,0,0,0,0,0,0,0,0,0,0,0,0,0,0,0,0,0,0,0,0,0,0,0,0,0,
0,0,0,0,0,0,0,0,0,0,0,0,0,0,0,0,0,0,0,0,0,0,0,0,0,2558,2814,2623,2624,0,0,0,0,0,0,0,0,0,0,0,0,0,0,0,0,0,0,0,0,0,0,0,0,0,0,0,0,0,0,0,
0,0,0,0,0,0,0,0,0,0,0,0,0,0,0,0,0,0,0,0,0,0,0,0,0,2622,2623,2623,2624,0,0,0,0,0,0,0,0,0,0,0,0,0,0,0,0,0,0,0,0,0,0,0,0,0,0,0,0,0,0,0,
0,0,0,0,0,0,0,0,0,0,0,0,0,0,0,0,0,0,0,0,0,0,0,0,0,2622,2623,2749,2688,0,0,0,0,0,0,0,0,0,0,0,0,0,0,0,0,0,0,0,0,0,0,0,0,0,0,0,0,0,0,0,
0,0,0,0,0,0,0,0,0,0,0,0,0,0,0,0,0,0,0,0,0,0,0,0,2558,2814,2623,2624,0,0,0,0,0,0,0,0,0,0,0,0,0,0,0,0,0,0,0,0,0,0,0,0,0,0,0,0,0,0,0,0,
0,0,0,0,0,0,0,0,0,0,0,0,0,0,0,0,0,0,0,0,0,0,0,0,2622,2623,2749,2688,0,0,0,0,0,0,0,0,0,0,0,0,0,0,0,0,0,0,0,0,0,0,0,0,0,0,0,0,0,0,0,0,
0,0,0,0,0,0,0,0,0,0,0,0,0,0,0,0,0,0,0,0,0,0,0,0,2622,2623,2624,0,0,0,0,0,0,0,0,0,0,0,0,0,0,0,0,0,0,0,0,0,0,0,0,0,0,0,0,0,0,0,0,0,
0,0,0,0,0,0,0,0,0,0,0,0,0,0,0,0,0,0,0,0,0,0,0,2558,2814,2749,2688,0,0,0,0,0,0,0,0,0,0,0,0,0,0,0,0,0,0,0,0,0,0,0,0,0,0,0,0,0,0,0,0,0,
0,0,0,0,0,0,0,0,0,0,0,0,0,0,0,0,0,0,0,0,0,0,0,2622,2623,2624,0,0,0,0,0,0,0,0,0,0,0,0,0,0,0,0,0,0,0,0,0,0,0,0,0,0,0,0,0,0,0,0,0,0,
0,0,0,0,0,0,0,0,0,0,0,0,0,0,0,0,0,0,0,0,0,0,0,2622,2749,2688,0,0,0,0,0,0,0,0,0,0,0,0,0,0,0,0,0,0,0,0,0,0,0,0,0,0,0,0,0,0,0,0,0,0,
0,0,0,0,0,0,0,0,0,0,0,0,0,0,0,0,0,0,0,0,0,0,2558,2814,2624,0,0,0,0,0,0,0,0,0,0,0,0,0,0,0,0,0,0,0,0,0,0,0,0,0,0,0,0,0,0,0,0,0,0,0,
0,0,0,0,0,0,0,0,0,0,0,0,0,0,0,0,0,0,0,0,0,2558,2814,2623,2624,0,0,0,0,0,0,0,0,0,0,0,0,0,0,0,0,0,0,0,0,0,0,0,0,0,0,0,0,0,0,0,0,0,0,0,
0,0,0,0,0,0,0,0,0,0,0,0,0,0,0,0,0,0,0,0,0,2622,2623,2749,2688,0,0,0,0,0,0,0,0,0,0,0,0,0,0,0,0,0,0,0,0,0,0,0,0,0,0,0,0,0,0,0,0,0,0,0,
0,0,0,0,0,0,0,0,0,0,0,0,0,0,0,0,0,0,0,0,2558,2814,2623,2624,0,0,0,0,0,0,0,0,0,0,0,0,0,0,0,0,0,0,0,0,0,0,0,0,0,0,0,0,0,0,0,0,0,0,0,0,
0,0,0,0,0,0,0,0,0,0,0,0,0,0,0,0,0,0,0,2558,2814,2623,2749,2688,0,0,0,0,0,0,0,0,0,0,0,0,0,0,0,0,0,0,0,0,0,0,0,0,0,0,0,0,0,0,0,0,0,0,0,0,
0,0,0,0,0,0,0,0,0,0,0,0,0,0,0,0,0,0,2558,2814,2623,2623,2624,0,0,0,0,0,0,0,0,0,0,0,0,0,0,0,0,0,0,0,0,0,0,0,0,0,0,0,0,0,0,0,0,0,0,0,0,0,
2559,2560,0,0,0,0,0,0,0,0,0,0,0,0,0,0,2558,2559,2814,2623,2623,2749,2688,0,0,0,0,0,0,0,0,0,0,0,0,0,0,0,0,0,0,0,0,0,0,0,0,0,0,0,0,0,0,0,0,0,0,0,0,0,
2623,2813,2559,2559,2560,0,0,0,0,0,0,0,0,2558,2559,2559,2814,2623,2623,2623,2623,2624,0,0,0,0,0,0,0,0,0,0,0,0,0,0,0,0,0,0,0,0,0,0,0,0,0,0,0,0,0,0,0,0,0,0,0,0,0,0,
2623,2623,2623,2623,2813,2559,2559,2559,2559,2559,2559,2559,2559,2814,2623,2623,2623,2623,2623,2623,2623,2624,0,0,0,0,0,0,0,0,0,0,0,0,0,0,0,0,0,0,0,0,0,0,0,0,0,0,0,0,0,0,0,0,0,0,0,0,0,0,
2687,2750,2623,2623,2623,2623,2623,2623,2623,2623,2623,2623,2623,2623,2623,2623,2623,2623,2623,2623,2749,2688,0,0,0,0,0,0,0,0,0,0,0,0,0,0,0,0,0,0,0,0,0,0,0,0,0,0,0,0,0,0,0,0,0,0,0,0,0,0,
0,2686,2687,2687,2687,2687,2687,2687,2687,2687,2687,2687,2687,2750,2623,2623,2623,2623,2623,2623,2624,0,0,0,0,0,0,0,0,0,0,0,0,0,0,0,0,0,0,0,0,0,0,0,0,0,0,0,0,0,0,0,0,0,0,0,0,0,0,0,
0,0,0,0,0,0,0,0,0,0,0,0,0,2686,2687,2750,2623,2623,2623,2623,2624,0,0,0,0,0,0,0,0,0,0,0,0,0,0,0,0,0,0,0,0,0,0,0,0,0,0,0,0,0,0,0,0,0,0,0,0,0,0,0,
0,0,0,0,0,0,0,0,0,0,0,0,0,0,0,2686,2687,2750,2623,2623,2624,0,0,0,0,0,0,0,0,0,0,0,0,0,0,0,0,0,0,0,0,0,0,0,0,0,0,0,0,0,0,0,0,0,0,0,0,0,0,0,
0,0,0,0,0,0,0,0,0,0,0,0,0,0,0,0,0,2686,2750,2623,2813,2560,0,0,0,0,0,0,0,0,0,0,0,0,0,0,0,0,0,0,0,0,0,0,0,0,0,0,0,0,0,0,0,0,0,0,0,0,0,0,
0,0,0,0,0,0,0,0,0,0,0,0,0,0,0,0,0,0,2622,2623,2623,2624,0,0,0,0,0,0,0,0,0,0,0,0,0,0,0,0,0,0,0,0,0,0,0,0,0,0,0,0,0,0,0,0,0,0,0,0,0,0,
0,0,0,0,0,0,0,0,0,0,0,0,0,0,0,0,0,0,2622,2623,2623,2624,0,0,0,0,0,0,0,0,0,0,0,0,0,0,0,0,0,0,0,0,0,0,0,0,0,0,0,0,0,0,0,0,0,0,0,0,0,0,
0,0,0,0,0,0,0,0,0,0,0,0,0,0,0,0,0,0,2686,2750,2623,2813,2560,0,0,0,0,0,0,0,0,0,0,0,0,0,0,0,0,0,0,0,0,0,0,0,0,0,0,0,0,0,0,0,0,0,0,0,0,0,
0,0,0,0,0,0,0,0,0,0,0,0,0,0,0,0,0,0,0,2622,2623,2623,2624,0,0,0,0,0,0,0,0,0,0,0,0,0,0,0,0,0,0,0,0,0,0,0,0,0,0,0,0,0,0,0,0,0,0,0,0,0,
0,0,0,0,0,0,0,0,0,0,0,0,0,0,0,0,0,0,0,2622,2623,2623,2624,0,0,0,0,0,0,0,0,0,0,0,0,0,0,0,0,0,0,0,0,0,0,0,0,0,0,0,0,0,0,0,0,0,0,0,0,0,
0,0,0,0,0,0,0,0,0,0,0,0,0,0,0,0,0,0,0,2622,2623,2623,2624,0,0,0,0,0,0,0,0,0,0,0,0,0,0,0,0,0,0,0,0,0,0,0,0,0,0,0,0,0,0,0,0,0,0,0,0,0,
0,0,0,0,0,0,0,0,0,0,0,0,0,0,0,0,0,0,0,2622,2623,2749,2688,0,0,0,0,0,0,0,0,0,0,0,0,0,0,0,0,0,0,0,0,0,0,0,0,0,0,0,0,0,0,0,0,0,0,0,0,0,
0,0,0,0,0,0,0,0,0,0,0,0,0,0,0,0,0,0,0,2622,2623,2624,0,0,0,0,0,0,0,0,0,0,0,0,0,0,0,0,0,0,0,0,0,0,0,0,0,0,0,0,0,0,0,0,0,0,0,0,0,0,
0,0,0,0,0,0,0,0,0,0,0,0,0,0,0,0,0,0,2558,2814,2623,2624,0,0,0,0,0,0,0,0,0,0,0,0,0,0,0,0,0,0,0,0,0,0,0,0,0,0,0,0,0,0,0,0,0,0,0,0,0,0,
0,0,0,0,0,0,0,0,0,0,0,0,0,0,0,0,0,0,2622,2623,2623,2813,2560,0,0,0,0,0,0,0,0,0,0,0,0,0,0,0,0,0,0,0,0,0,0,0,0,0,0,0,0,0,0,0,0,0,0,0,0,0,
0,0,0,0,0,0,0,0,0,0,0,0,0,0,0,0,0,2558,2814,2623,2623,2623,2624,0,0,0,0,0,0,0,0,0,0,0,0,0,0,0,0,0,0,0,0,0,0,0,0,0,0,0,0,0,0,0,0,0,0,0,0,0,
0,0,0,0,0,0,0,0,0,0,0,0,0,0,0,0,0,2622,2623,2623,2623,2623,2813,2560,0,0,0,0,0,0,0,0,0,0,0,0,0,0,0,0,0,0,0,0,0,0,0,0,0,0,0,0,0,0,0,0,0,0,0,0,
0,0,0,0,0,0,0,0,0,0,0,0,0,0,0,0,2558,2814,2623,2623,2623,2623,2623,2813,2560,0,0,0,0,0,0,0,0,0,0,0,0,0,0,0,0,0,0,0,0,0,0,0,0,0,0,0,0,0,0,0,0,0,0,0,
0,0,0,0,0,0,0,0,0,0,0,0,0,0,0,0,2622,2623,2623,2623,2623,2623,2623,2623,2813,2559,2560,0,0,0,0,0,0,0,0,0,0,0,0,0,0,0,0,0,0,0,0,0,0,0,0,0,0,0,0,0,0,0,0,0,
0,0,0,0,0,0,0,0,0,0,0,0,0,0,0,2558,2814,2749,2687,2687,2687,2687,2750,2623,2623,2623,2813,2560,0,0,0,0,0,0,0,0,0,0,0,0,0,0,0,0,0,0,0,0,0,0,0,0,0,0,0,0,0,0,0,0,
0,0,0,0,0,0,0,0,0,0,0,0,0,0,2558,2814,2749,2688,0,0,0,0,2686,2750,2623,2623,2623,2813,2560,0,0,0,0,0,0,0,0,0,0,0,0,0,0,0,0,0,0,0,0,0,0,0,0,0,0,0,0,0,0,0,
0,0,0,0,0,0,0,0,0,0,0,0,0,0,2622,2749,2688,0,0,0,0,0,0,2686,2687,2750,2623,2623,2624,0,0,0,0,0,0,0,0,0,0,0,0,0,0,0,0,0,0,0,0,0,0,0,0,0,0,0,0,0,0,0,
0,0,0,0,0,0,0,0,0,0,0,0,0,2558,2814,2624,0,0,0,0,0,0,0,0,0,2622,2623,2623,2624,0,0,0,0,0,0,0,0,0,0,0,0,0,0,0,0,0,0,0,0,0,0,0,0,0,0,0,0,0,0,0,
0,0,0,0,0,0,0,0,0,0,0,0,2558,2814,2749,2688,0,0,0,0,0,0,0,0,0,2622,2623,2623,2624,0,0,0,0,0,0,0,0,0,0,0,0,0,0,0,0,0,0,0,0,0,0,0,0,0,0,0,0,0,0,0,
0,0,0,0,0,0,0,0,0,0,0,0,2622,2623,2624,0,0,0,0,0,0,0,0,0,0,2622,2623,2623,2624,0,0,0,0,0,0,0,0,0,0,0,0,0,0,0,0,0,0,0,0,0,0,0,0,0,0,0,0,0,0,0,
0,0,0,0,0,0,0,0,0,0,0,0,2622,2623,2624,0,0,0,0,0,0,0,0,0,2558,2814,2623,2749,2688,0,0,0,0,0,0,0,0,0,0,0,0,0,0,0,0,0,0,0,0,0,0,0,0,0,0,0,0,0,0,0,
0,0,0,0,0,0,0,0,0,0,0,2558,2814,2623,2813,2560,0,0,0,0,0,0,2558,2559,2814,2623,2749,2688,0,0,0,0,0,0,0,0,0,0,0,0,0,0,0,0,0,0,0,0,0,0,0,0,0,0,0,0,0,0,0,0,
0,0,0,0,0,0,0,0,0,0,0,2622,2623,2623,2623,2813,2559,2559,2559,2559,2559,2559,2814,2623,2749,2687,2688,0,0,0,0,0,0,0,0,0,0,0,0,0,0,0,0,0,0,0,0,0,0,0,0,0,0,0,0,0,0,0,0,0,
0,0,0,0,0,0,0,0,0,0,2558,2814,2623,2623,2623,2623,2623,2623,2623,2623,2623,2623,2749,2687,2688,0,0,0,0,0,0,0,0,0,0,0,0,0,0,0,0,0,0,4094,4095,4095,4095,4095,4095,4095,4095,4095,4095,4095,4095,4095,4095,4095,4095,4095,
0,0,0,0,0,0,0,0,0,0,2622,2623,2623,2623,2623,2623,2623,2623,2623,2623,2749,2687,2688,0,0,0,0,0,0,0,0,0,0,0,0,0,0,0,0,0,0,0,0,4158,4159,4159,4159,4159,4159,4159,4159,4159,4159,4159,4159,4159,4159,4159,4159,4159,
0,0,0,0,0,0,0,0,0,2558,2814,2623,2623,2623,2623,2623,2623,2623,2749,2687,2688,0,0,0,0,0,0,0,0,0,0,0,0,0,0,0,0,0,0,0,0,0,0,4158,4159,4159,4159,4159,4159,4159,4159,4159,4159,4159,4159,4159,4159,4159,4159,4159,
0,0,0,0,0,0,0,0,0,2622,2623,2623,2623,2623,2623,2623,2749,2687,2688,0,0,0,0,0,0,0,0,0,0,0,0,0,0,0,0,0,0,0,0,0,0,0,0,4158,4159,4159,4159,0,0,0,0,0,0,0,0,0,0,0,0,0,
0,0,0,0,0,0,0,0,0,2622,2623,2623,2623,2623,2623,2749,2688,0,0,0,0,0,0,0,0,0,0,0,0,0,0,0,0,0,0,0,0,0,0,0,0,0,0,4158,4159,4159,4285,0,0,0,0,0,0,0,0,0,0,0,0,0,
0,0,0,0,0,0,0,0,0,2686,2750,2623,2623,2623,2749,2688,0,0,0,0,0,0,0,0,0,0,0,0,0,0,0,0,0,0,0,0,0,0,0,0,0,0,0,4158,4159,4159,4160,0,0,0,0,0,0,0,0,0,0,0,0,0,
0,0,0,0,0,0,0,0,0,0,2686,2750,2623,2623,2624,0,0,0,0,0,0,0,0,0,0,0,0,0,0,0,0,0,0,0,0,0,0,0,0,0,0,0,0,4158,4159,4159,4160,0,0,0,0,0,0,0,0,0,0,0,0,0,
0,0,0,0,0,0,0,0,0,0,0,2622,2623,2623,2624,0,0,0,0,0,0,0,0,0,0,0,0,0,0,0,0,0,0,0,0,0,0,0,0,0,0,0,0,4158,4159,4159,4160,0,0,0,0,0,0,0,0,0,0,0,0,0,
0,0,0,0,0,0,0,0,0,0,0,2622,2623,2623,2813,2560,0,0,0,0,0,0,0,0,0,0,0,0,0,0,0,0,0,0,0,0,0,0,0,0,0,0,0,4158,4159,4159,4160,0,0,0,0,0,0,0,0,0,0,0,0,0,
0,0,0,0,0,0,0,0,0,0,0,2686,2750,2623,2623,2624,0,0,0,0,0,0,0,0,0,0,0,0,0,0,0,0,0,0,0,0,0,0,0,0,0,0,0,4158,4159,4159,4160,0,0,0,0,0,0,0,0,0,0,0,0,0,
0,0,0,0,0,0,0,0,0,0,0,0,2622,2623,2623,2624,0,0,0,0,0,0,0,0,0,0,0,0,0,0,0,0,0,0,0,0,0,0,0,0,0,0,0,4158,4159,4159,4160,0,0,0,0,0,0,0,0,0,0,0,0,0
</data>
 </layer>
 <layer id="10" name="water_grass" width="60" height="60">
  <data encoding="csv">
0,0,0,0,0,0,0,0,0,0,0,0,0,0,0,0,0,0,0,0,0,0,0,0,0,0,0,0,0,0,0,0,0,0,0,0,0,0,0,0,0,0,0,0,0,0,0,0,0,0,0,0,0,0,0,0,0,0,0,0,
0,0,0,0,0,0,0,0,0,0,0,0,0,0,0,0,0,0,0,0,0,0,0,0,0,0,0,0,0,0,0,0,0,0,0,0,0,0,0,0,0,0,0,0,0,0,0,0,0,0,0,0,0,0,0,0,0,0,0,0,
0,0,0,0,0,0,0,0,0,0,0,0,0,0,0,0,0,0,0,0,0,0,0,0,0,0,0,0,0,0,0,0,0,0,0,0,0,0,0,0,0,0,0,0,0,0,0,0,0,0,0,0,0,0,0,0,0,0,0,0,
0,0,0,0,0,0,0,0,0,0,0,0,0,0,0,0,0,0,0,0,0,0,0,0,0,0,0,635,0,0,0,0,0,0,0,0,0,0,0,0,0,0,0,0,0,0,0,0,0,0,0,0,0,0,0,0,0,0,0,0,
0,0,0,0,0,0,0,0,0,0,0,0,0,0,0,0,0,0,0,0,0,0,0,0,0,0,0,0,0,0,0,0,0,0,0,0,0,0,0,0,0,0,0,0,0,0,0,0,0,0,0,0,0,0,0,0,0,0,0,0,
0,0,0,0,0,0,0,0,0,0,0,0,0,0,0,0,0,0,0,0,0,0,0,0,0,0,0,0,0,0,0,0,0,0,0,0,0,0,0,0,0,0,0,0,0,0,0,0,0,0,0,0,0,0,0,0,0,0,0,0,
0,0,0,0,0,0,0,0,0,0,0,0,0,0,0,0,0,0,0,0,0,0,0,0,0,0,0,0,0,0,0,0,0,0,0,0,0,0,0,0,0,0,0,0,0,0,0,0,0,0,0,0,0,0,0,0,0,0,0,0,
0,0,0,0,0,0,0,0,0,0,0,0,0,0,0,0,0,0,0,0,0,0,0,0,0,0,0,0,0,0,0,0,0,0,0,0,0,0,0,0,0,0,0,0,0,0,0,0,0,0,0,0,0,0,0,0,0,0,0,0,
0,0,0,0,0,0,0,0,0,0,0,0,0,0,0,0,0,0,0,0,0,0,0,0,0,0,0,0,0,0,0,0,0,0,0,0,0,0,0,0,0,0,0,0,0,0,0,0,0,0,0,0,0,0,0,0,0,0,0,0,
0,0,0,0,0,0,0,0,0,0,0,0,0,0,0,0,0,0,0,0,0,0,0,0,0,0,0,0,0,0,0,0,0,0,0,0,0,0,0,0,0,0,0,0,0,0,0,0,0,0,0,0,0,0,0,0,0,0,0,0,
0,0,0,0,0,0,0,0,0,0,0,0,0,0,0,0,0,0,0,0,0,0,0,0,0,0,0,0,0,0,0,0,0,0,0,0,0,0,0,0,0,0,0,0,0,0,0,0,0,0,0,0,0,0,0,0,0,0,0,0,
0,0,0,0,0,0,0,0,0,0,0,0,0,0,0,0,0,0,0,0,0,0,0,0,0,0,0,0,0,0,0,0,0,0,0,0,0,0,0,0,0,0,0,0,0,0,0,0,0,0,0,0,0,0,0,0,0,0,0,0,
0,0,0,0,0,0,0,0,0,0,0,0,0,0,0,0,0,0,0,0,0,0,0,0,0,0,0,0,0,0,0,0,0,0,0,0,0,0,0,0,0,0,0,0,0,0,0,0,0,0,0,0,0,0,0,0,0,0,0,0,
0,0,0,0,0,0,0,0,0,0,0,0,0,0,0,0,0,0,0,0,0,0,0,0,0,0,0,0,0,0,0,0,0,0,0,0,0,0,0,0,0,0,0,0,0,0,0,0,0,0,0,0,0,0,0,0,0,0,0,0,
0,0,0,0,0,0,0,0,0,0,0,0,0,0,0,0,0,0,0,0,0,0,0,0,0,0,0,0,0,0,0,0,0,0,0,0,0,0,0,0,0,0,0,0,0,0,0,0,0,0,0,0,0,0,0,0,0,0,0,0,
0,0,0,0,0,0,0,0,0,0,0,0,0,0,0,0,0,0,0,0,0,0,0,0,0,0,0,0,0,0,0,0,0,0,0,0,0,0,0,0,0,0,0,0,0,0,0,0,0,0,0,0,0,0,0,0,0,0,0,0,
0,0,0,0,0,0,0,0,0,0,0,0,0,0,0,0,0,0,0,0,0,635,0,0,0,0,0,0,0,0,0,0,0,0,0,0,0,0,0,0,0,0,0,0,0,0,0,0,0,0,0,0,0,0,0,0,0,0,0,0,
0,0,0,0,0,0,0,0,0,0,0,0,0,0,0,0,0,0,0,0,0,0,0,0,0,0,0,0,0,0,0,0,0,0,0,0,0,0,0,0,0,0,0,0,0,0,0,0,0,0,0,0,0,0,0,0,0,0,0,0,
0,0,0,0,0,0,0,0,0,0,0,0,0,0,0,0,0,0,0,0,0,0,0,0,0,0,0,0,0,0,0,0,0,0,0,0,0,0,0,0,0,0,0,0,0,0,0,0,0,0,0,0,0,0,0,0,0,0,0,0,
635,0,0,0,0,0,0,0,0,0,0,0,0,0,0,0,0,0,635,0,0,0,0,0,0,0,0,0,0,0,0,0,0,0,0,0,0,0,0,0,0,0,0,0,0,0,0,0,0,0,0,0,0,0,0,0,0,0,0,0,
0,0,0,0,0,0,0,0,0,0,0,0,0,0,0,635,0,0,0,0,0,0,0,0,0,0,0,0,0,0,0,0,0,0,0,0,0,0,0,0,0,0,0,0,0,0,0,0,0,0,0,0,0,0,0,0,0,0,0,0,
0,0,0,0,635,0,0,0,0,0,0,0,0,0,0,0,0,0,0,0,0,0,0,0,0,0,0,0,0,0,0,0,0,0,0,0,0,0,0,0,0,0,0,0,0,0,0,0,0,0,0,0,0,0,0,0,0,0,0,0,
0,0,0,0,0,0,0,0,0,0,0,0,0,0,0,0,0,0,0,0,0,0,0,0,0,0,0,0,0,0,0,0,0,0,0,0,0,0,0,0,0,0,0,0,0,0,0,0,0,0,0,0,0,0,0,0,0,0,0,0,
0,0,0,0,0,0,0,0,0,0,0,0,0,0,0,0,0,0,0,0,0,0,0,0,0,0,0,0,0,0,0,0,0,0,0,0,0,0,0,0,0,0,0,0,0,0,0,0,0,0,0,0,0,0,0,0,0,0,0,0,
0,0,0,0,0,0,0,0,0,0,0,0,0,0,0,0,0,0,0,635,0,0,0,0,0,0,0,0,0,0,0,0,0,0,0,0,0,0,0,0,0,0,0,0,0,0,0,0,0,0,0,0,0,0,0,0,0,0,0,0,
0,0,0,0,0,0,0,0,0,0,0,0,0,0,0,0,0,0,0,0,0,0,0,0,0,0,0,0,0,0,0,0,0,0,0,0,0,0,0,0,0,0,0,0,0,0,0,0,0,0,0,0,0,0,0,0,0,0,0,0,
0,0,0,0,0,0,0,0,0,0,0,0,0,0,0,0,0,0,0,0,0,0,0,0,0,0,0,0,0,0,0,0,0,0,0,0,0,0,0,0,0,0,0,0,0,0,0,0,0,0,0,0,0,0,0,0,0,0,0,0,
0,0,0,0,0,0,0,0,0,0,0,0,0,0,0,0,0,0,0,0,0,0,0,0,0,0,0,0,0,0,0,0,0,0,0,0,0,0,0,0,0,0,0,0,0,0,0,0,0,0,0,0,0,0,0,0,0,0,0,0,
0,0,0,0,0,0,0,0,0,0,0,0,0,0,0,0,0,0,0,0,0,0,0,0,0,0,0,0,0,0,0,0,0,0,0,0,0,0,0,0,0,0,0,0,0,0,0,0,0,0,0,0,0,0,0,0,0,0,0,0,
0,0,0,0,0,0,0,0,0,0,0,0,0,0,0,0,0,0,0,0,0,0,0,0,0,0,0,0,0,0,0,0,0,0,0,0,0,0,0,0,0,0,0,0,0,0,0,0,0,0,0,0,0,0,0,0,0,0,0,0,
0,0,0,0,0,0,0,0,0,0,0,0,0,0,0,0,0,0,0,0,0,0,0,0,0,0,0,0,0,0,0,0,0,0,0,0,0,0,0,0,0,0,0,0,0,0,0,0,0,0,0,0,0,0,0,0,0,0,0,0,
0,0,0,0,0,0,0,0,0,0,0,0,0,0,0,0,0,0,0,0,0,0,0,0,0,0,0,0,0,0,0,0,0,0,0,0,0,0,0,0,0,0,0,0,0,0,0,0,0,0,0,0,0,0,0,0,0,0,0,0,
0,0,0,0,0,0,0,0,0,0,0,0,0,0,0,0,0,0,0,0,0,0,0,0,0,0,0,0,0,0,0,0,0,0,0,0,0,0,0,0,0,0,0,0,0,0,0,0,0,0,0,0,0,0,0,0,0,0,0,0,
0,0,0,0,0,0,0,0,0,0,0,0,0,0,0,0,0,0,0,0,0,0,0,0,0,0,0,0,0,0,0,0,0,0,0,0,0,0,0,0,0,0,0,0,0,0,0,0,0,0,0,0,0,0,0,0,0,0,0,0,
0,0,0,0,0,0,0,0,0,0,0,0,0,0,0,0,0,0,0,0,0,0,0,0,0,0,0,0,0,0,0,0,0,0,0,0,0,0,0,0,0,0,0,0,0,0,0,0,0,0,0,0,0,0,0,0,0,0,0,0,
0,0,0,0,0,0,0,0,0,0,0,0,0,0,0,0,0,0,0,0,0,0,0,0,0,0,0,0,0,0,0,0,0,0,0,0,0,0,0,0,0,0,0,0,0,0,0,0,0,0,0,0,0,0,0,0,0,0,0,0,
0,0,0,0,0,0,0,0,0,0,0,0,0,0,0,0,0,0,0,635,0,0,0,0,0,0,0,0,0,0,0,0,0,0,0,0,0,0,0,0,0,0,0,0,0,0,0,0,0,0,0,0,0,0,0,0,0,0,0,0,
0,0,0,0,0,0,0,0,0,0,0,0,0,0,0,0,0,0,0,0,0,0,0,0,0,0,0,0,0,0,0,0,0,0,0,0,0,0,0,0,0,0,0,0,0,0,0,0,0,0,0,0,0,0,0,0,0,0,0,0,
0,0,0,0,0,0,0,0,0,0,0,0,0,0,0,0,0,0,0,0,0,0,0,0,0,0,0,0,0,0,0,0,0,0,0,0,0,0,0,0,0,0,0,0,0,0,0,0,0,0,0,0,0,0,0,0,0,0,0,0,
0,0,0,0,0,0,0,0,0,0,0,0,0,0,0,0,0,0,0,0,0,636,0,0,0,0,0,0,0,0,0,0,0,0,0,0,0,0,0,0,0,0,0,0,0,0,0,0,0,0,0,0,0,0,0,0,0,0,0,0,
0,0,0,0,0,0,0,0,0,0,0,0,0,0,0,0,0,0,0,0,0,0,0,0,0,0,0,0,0,0,0,0,0,0,0,0,0,0,0,0,0,0,0,0,0,0,0,0,0,0,0,0,0,0,0,0,0,0,0,0,
0,0,0,0,0,0,0,0,0,0,0,0,0,0,0,0,0,0,0,0,0,0,0,0,0,635,0,0,0,0,0,0,0,0,0,0,0,0,0,0,0,0,0,0,0,0,0,0,0,0,0,0,0,0,0,0,0,0,0,0,
0,0,0,0,0,0,0,0,0,0,0,0,0,0,0,0,0,0,0,0,0,0,0,0,0,0,0,0,0,0,0,0,0,0,0,0,0,0,0,0,0,0,0,0,0,0,0,0,0,0,0,0,0,0,0,0,0,0,0,0,
0,0,0,0,0,0,0,0,0,0,0,0,0,0,0,0,0,0,0,0,0,0,0,0,0,0,0,636,636,0,0,0,0,0,0,0,0,0,0,0,0,0,0,0,0,0,0,0,0,0,0,0,0,0,0,0,0,0,0,0,
0,0,0,0,0,0,0,0,0,0,0,0,0,0,0,0,0,0,0,0,0,0,0,0,0,636,636,636,0,0,0,0,0,0,0,0,0,0,0,0,0,0,0,0,0,0,0,0,0,0,0,0,0,0,0,0,0,0,0,0,
0,0,0,0,0,0,0,0,0,0,0,0,0,0,0,0,0,0,0,0,0,0,0,0,0,0,0,0,0,0,0,0,0,0,0,0,0,0,0,0,0,0,0,0,0,0,0,0,0,0,0,0,0,0,0,0,0,0,0,0,
0,0,0,0,0,0,0,0,0,0,0,0,0,0,0,0,0,0,0,0,0,0,0,0,0,0,0,0,0,0,0,0,0,0,0,0,0,0,0,0,0,0,0,0,0,0,0,0,0,0,0,0,0,0,0,0,0,0,0,0,
0,0,0,0,0,0,0,0,0,0,0,0,0,0,0,0,0,0,0,0,0,0,0,0,0,0,0,0,0,0,0,0,0,0,0,0,0,0,0,0,0,0,0,0,0,0,0,0,0,0,0,0,0,0,0,0,0,0,0,0,
0,0,0,0,0,0,0,0,0,0,0,0,0,0,0,0,0,0,0,0,0,0,0,0,0,0,0,0,0,0,0,0,0,0,0,0,0,0,0,0,0,0,0,0,0,0,0,0,0,0,0,0,0,0,0,0,0,0,0,0,
0,0,0,0,0,0,0,0,0,0,0,0,0,0,0,0,0,0,0,636,0,0,0,0,0,0,0,0,0,0,0,0,0,0,0,0,0,0,0,0,0,0,0,0,0,0,0,0,0,0,0,0,0,0,0,0,0,0,0,0,
0,0,0,0,0,0,0,0,0,0,0,0,0,636,0,0,0,635,0,0,0,0,0,0,0,0,0,0,0,0,0,0,0,0,0,0,0,0,0,0,0,0,0,0,0,0,0,0,0,0,0,0,0,0,0,0,0,0,0,0,
0,0,0,0,0,0,0,0,0,0,0,0,0,0,0,635,0,0,0,0,0,0,0,0,0,0,0,0,0,0,0,0,0,0,0,0,0,0,0,0,0,0,0,0,0,0,0,0,0,0,0,0,0,0,0,0,0,0,0,0,
0,0,0,0,0,0,0,0,0,0,635,0,0,0,0,0,0,0,0,0,0,0,0,0,0,0,0,0,0,0,0,0,0,0,0,0,0,0,0,0,0,0,0,0,0,0,0,0,0,0,0,0,0,0,0,0,0,0,0,0,
0,0,0,0,0,0,0,0,0,0,0,0,0,0,0,0,0,0,0,0,0,0,0,0,0,0,0,0,0,0,0,0,0,0,0,0,0,0,0,0,0,0,0,0,0,0,0,0,0,0,0,0,0,0,0,0,0,0,0,0,
0,0,0,0,0,0,0,0,0,0,0,0,636,0,0,0,0,0,0,0,0,0,0,0,0,0,0,0,0,0,0,0,0,0,0,0,0,0,0,0,0,0,0,0,0,0,0,0,0,0,0,0,0,0,0,0,0,0,0,0,
0,0,0,0,0,0,0,0,0,0,0,0,0,0,0,0,0,0,0,0,0,0,0,0,0,0,0,0,0,0,0,0,0,0,0,0,0,0,0,0,0,0,0,0,0,0,0,0,0,0,0,0,0,0,0,0,0,0,0,0,
0,0,0,0,0,0,0,0,0,0,0,0,0,0,0,0,0,0,0,0,0,0,0,0,0,0,0,0,0,0,0,0,0,0,0,0,0,0,0,0,0,0,0,0,0,0,0,0,0,0,0,0,0,0,0,0,0,0,0,0,
0,0,0,0,0,0,0,0,0,0,0,0,0,0,0,0,0,0,0,0,0,0,0,0,0,0,0,0,0,0,0,0,0,0,0,0,0,0,0,0,0,0,0,0,0,0,0,0,0,0,0,0,0,0,0,0,0,0,0,0,
0,0,0,0,0,0,0,0,0,0,0,0,0,635,0,0,0,0,0,0,0,0,0,0,0,0,0,0,0,0,0,0,0,0,0,0,0,0,0,0,0,0,0,0,0,0,0,0,0,0,0,0,0,0,0,0,0,0,0,0,
0,0,0,0,0,0,0,0,0,0,0,0,0,0,0,0,0,0,0,0,0,0,0,0,0,0,0,0,0,0,0,0,0,0,0,0,0,0,0,0,0,0,0,0,0,0,0,0,0,0,0,0,0,0,0,0,0,0,0,0
</data>
 </layer>
 <layer id="7" name="building" width="60" height="60">
  <data encoding="csv">
0,0,0,0,0,0,0,0,0,0,0,0,0,0,0,0,0,0,0,0,0,0,0,0,0,0,0,0,0,0,0,673,673,674,665,653,0,0,673,674,657,0,0,0,0,0,0,0,0,0,0,0,0,681,673,674,728,0,0,0,
0,0,0,0,0,0,0,0,0,0,0,0,0,0,0,0,0,0,0,0,0,0,0,0,0,0,0,0,0,0,0,681,673,674,673,657,0,0,681,682,665,653,0,0,0,0,0,0,0,652,666,653,0,0,681,682,672,0,705,706,
0,0,0,0,0,0,0,0,0,0,0,0,0,0,0,0,0,0,0,0,0,0,0,0,0,0,0,0,0,0,0,0,681,682,673,665,653,0,0,0,673,665,653,0,0,0,0,0,652,667,713,665,666,653,0,0,680,0,673,674,
0,0,0,0,0,0,0,0,1137,1137,1137,1137,1137,1137,1137,0,0,0,0,0,0,0,0,0,0,0,0,0,0,0,0,0,0,0,681,673,657,0,0,0,673,673,665,653,0,0,0,652,667,714,713,673,674,665,653,0,0,0,681,682,
0,0,0,0,0,0,0,0,1145,1145,1145,1145,1145,1145,1145,0,0,0,0,0,0,0,0,0,0,0,0,0,0,0,0,0,0,0,0,673,657,0,0,0,681,673,673,665,653,652,666,667,714,714,721,673,715,673,665,653,0,0,0,0,
0,0,0,0,0,0,0,0,1153,1153,1153,1153,1153,1153,1153,1463,1464,0,0,0,0,0,0,0,0,0,0,0,0,0,0,0,0,0,0,681,657,0,0,0,0,681,673,673,665,667,713,675,714,722,0,681,723,673,673,657,0,0,0,0,
0,0,0,0,0,0,0,0,1153,1153,1153,1153,1153,1153,1153,1471,1472,0,0,0,0,0,0,0,0,0,0,0,0,0,0,0,0,0,0,0,657,0,0,0,0,0,681,673,673,675,713,675,722,0,0,0,0,681,673,665,653,0,0,0,
0,0,0,0,0,0,0,0,1161,1161,1161,1161,1161,1161,1161,1479,1480,0,0,0,0,0,0,0,0,0,0,0,0,0,0,0,0,0,0,0,665,653,0,0,0,0,0,681,673,675,721,683,0,0,0,0,0,0,681,673,665,653,0,0,
0,0,0,0,0,0,0,0,929,930,930,930,930,936,931,1443,0,0,0,0,0,0,0,0,0,0,0,0,0,0,0,0,0,0,0,0,673,665,666,653,0,0,0,0,681,683,0,0,0,0,0,0,0,0,0,673,673,665,666,666,
0,0,0,0,0,0,0,0,937,938,938,938,938,944,939,1443,1444,0,0,0,0,0,0,0,0,0,0,0,0,0,0,0,0,0,0,0,673,673,674,657,0,0,0,0,0,0,0,0,0,0,0,0,0,0,0,681,673,673,674,674,
0,0,0,0,0,0,0,0,1453,1454,0,0,0,0,855,856,0,0,0,0,0,0,0,0,0,0,0,0,0,0,0,0,0,0,0,0,681,673,674,665,653,0,0,0,0,0,0,0,0,0,0,0,0,0,0,0,681,673,674,674,
0,0,0,0,0,803,804,0,0,0,0,0,0,0,863,864,0,0,0,0,0,0,0,0,0,0,0,0,0,0,0,0,0,0,0,0,0,681,682,673,657,0,0,0,0,0,0,0,0,0,652,666,653,0,0,0,0,681,682,682,
0,0,0,0,0,0,0,0,0,0,0,0,0,0,0,0,0,0,0,0,0,0,0,0,0,0,0,0,0,0,0,0,0,0,0,0,0,0,0,673,657,0,0,652,666,666,653,0,652,666,667,713,665,666,653,0,0,0,0,0,
0,0,0,0,0,0,0,0,0,0,0,0,0,805,0,0,0,0,0,0,0,0,0,0,0,0,0,0,0,0,0,0,0,0,0,0,0,0,0,681,665,653,0,659,713,674,665,0,667,713,675,713,673,674,665,653,0,0,0,0,
0,0,0,0,0,0,0,0,0,0,0,0,0,0,0,0,0,0,0,0,0,0,0,0,0,0,0,0,0,0,0,0,0,0,0,0,0,0,0,0,673,665,666,667,713,674,673,687,714,713,675,721,673,674,673,657,0,0,0,0,
0,0,0,0,0,0,0,0,0,0,0,0,0,0,0,0,0,0,0,0,0,0,0,0,0,0,0,0,0,0,0,0,0,0,0,0,1138,1138,1138,1138,1138,673,674,675,721,682,673,672,714,721,683,0,681,682,673,665,0,653,0,0,
0,0,0,0,0,0,0,0,0,0,0,0,0,0,0,0,0,0,0,0,0,0,0,0,0,0,0,0,0,0,0,0,0,0,0,0,1138,1138,1138,1138,1138,673,674,675,0,0,681,672,722,0,0,0,0,0,681,673,674,665,653,0,
0,0,0,0,0,0,0,0,0,0,0,0,0,0,0,0,0,0,0,0,0,0,0,0,0,0,0,0,1138,1138,1138,1138,1138,1138,1138,1138,1146,1146,1146,1146,1146,681,682,683,1484,0,0,680,0,0,0,0,0,0,0,673,674,673,665,666,
0,0,0,0,0,0,0,0,0,0,0,0,0,0,0,0,0,0,0,0,0,0,0,0,0,0,0,0,1138,1138,1138,1138,1138,1138,1138,1138,1154,1154,1154,1154,1154,0,0,0,1492,0,0,0,0,0,0,0,0,0,0,681,682,673,673,674,
0,0,0,0,0,0,844,845,846,0,0,0,0,0,0,0,0,0,0,0,0,0,0,0,0,0,0,0,1146,1146,1146,1146,1146,1146,1146,1146,1154,1154,1154,1154,1154,0,0,0,0,0,0,0,0,0,0,0,0,0,0,0,0,681,673,674,
0,0,0,0,0,0,852,853,854,0,0,0,0,0,0,0,0,0,0,0,0,0,0,0,0,0,0,0,1154,1154,1154,1154,1154,1154,1154,1154,1154,1154,1154,1154,1154,0,0,0,0,0,0,0,0,0,0,0,0,0,0,0,0,0,681,682,
0,0,0,0,0,0,852,853,854,0,0,0,0,0,0,0,0,0,0,0,0,0,0,0,0,0,0,0,1154,1154,1154,1154,1154,1154,1154,1154,1162,1162,1162,1162,1162,1463,1464,0,0,0,0,0,0,0,0,0,0,0,0,0,0,0,0,0,
0,0,0,0,0,0,852,853,854,0,0,0,0,0,0,0,0,0,0,0,0,0,0,0,0,0,0,0,1154,1154,1154,1154,1154,1154,1154,1154,962,962,962,962,963,1471,1472,0,0,0,0,0,0,0,0,0,0,0,0,0,0,0,0,0,
0,0,0,0,0,0,860,861,862,0,0,0,0,0,0,0,0,0,0,0,0,0,0,0,0,0,0,0,1162,1162,1162,1162,1162,1162,1162,1162,962,962,962,962,963,1479,1480,0,0,0,0,0,0,0,0,0,0,0,0,0,0,0,0,0,
0,0,0,0,0,0,0,0,0,0,0,0,0,0,0,0,0,0,0,0,0,0,0,0,0,0,0,0,961,962,968,962,962,962,962,962,962,962,968,962,963,1452,1434,0,0,0,0,0,0,0,0,0,0,0,0,0,0,0,0,0,
0,1518,1438,1301,1285,1518,0,0,0,0,0,807,808,0,0,0,0,0,0,0,0,0,0,0,0,0,0,0,969,970,976,970,970,970,970,970,970,970,976,970,971,1452,0,0,0,0,0,0,0,0,0,0,0,0,0,0,0,0,0,0,
1606,1526,1250,1251,1252,1526,813,0,0,0,0,815,816,0,0,1500,0,0,0,0,0,0,0,0,0,0,0,0,0,0,0,0,0,1437,1433,1433,0,0,0,0,0,0,0,0,0,0,0,0,0,0,0,0,0,0,0,0,0,0,0,0,
1414,1415,1416,0,0,0,0,0,0,0,0,0,0,0,0,1508,0,0,0,0,0,0,0,1484,0,0,806,0,0,0,0,0,0,0,0,0,0,0,0,0,0,0,0,0,0,0,0,0,0,0,0,0,0,0,0,0,0,0,0,0,
1430,1431,1432,0,0,0,0,0,0,0,0,0,0,0,0,0,0,0,0,0,0,0,0,1492,0,0,814,0,0,0,0,0,0,0,0,0,0,0,0,0,0,0,0,0,0,0,0,0,0,0,0,0,0,0,0,0,0,0,0,0,
0,0,0,0,0,0,0,0,0,0,0,0,0,0,0,0,0,0,841,842,842,842,842,843,0,0,0,0,0,0,0,0,0,0,0,0,0,0,0,0,0,0,0,0,0,0,0,0,0,0,0,0,0,0,0,0,0,0,0,0,
0,0,0,0,0,0,0,0,0,0,0,0,0,0,0,0,0,0,849,850,850,850,850,851,0,0,0,0,0,0,0,0,0,0,0,0,0,0,0,0,0,0,0,0,0,0,0,0,0,0,0,0,0,0,0,0,0,0,0,0,
0,0,0,0,0,0,0,0,0,0,0,0,0,0,0,0,0,1484,857,858,858,858,858,859,0,0,0,1139,1139,1139,1139,1139,1139,1139,0,0,0,0,0,0,0,0,0,0,0,0,0,0,0,0,0,0,0,0,0,0,0,0,0,0,
0,0,0,0,0,0,0,0,0,0,0,0,0,0,0,0,0,1492,0,0,0,0,0,0,0,0,0,1147,1147,1147,1147,1147,1147,1147,1461,1462,0,0,0,0,0,0,0,0,0,0,0,0,0,0,0,0,0,0,0,0,0,0,0,0,
0,0,0,0,0,0,0,0,0,0,0,0,0,0,0,0,0,0,0,0,0,0,0,0,0,0,0,1155,1155,1155,1155,1155,1155,1155,1469,1470,0,0,0,0,0,0,0,0,0,0,0,0,0,0,0,0,0,0,0,0,0,0,0,0,
0,0,0,0,0,0,0,0,0,0,0,0,0,0,0,0,0,0,0,0,0,0,0,0,0,0,1434,1155,1155,1155,1155,1155,1155,1155,1477,1478,0,0,0,0,0,0,0,0,0,0,0,0,0,0,0,0,0,0,0,0,0,0,0,0,
0,0,0,0,0,0,0,0,0,0,0,0,0,0,0,0,0,0,0,0,0,0,0,0,0,0,1434,1163,1163,1163,1163,1163,1163,1163,0,0,0,0,0,0,0,0,0,0,0,0,0,0,0,0,1484,0,0,0,0,1484,0,0,0,0,
0,0,0,0,0,0,0,0,0,0,0,0,0,0,0,0,0,0,0,0,0,0,0,0,0,0,0,993,994,994,994,994,994,995,0,0,0,0,0,0,0,0,0,0,0,0,0,0,0,0,1492,0,0,0,0,1492,0,0,0,0,
0,0,0,0,0,0,0,0,0,0,0,0,0,0,0,0,0,0,0,0,0,0,0,0,0,0,0,1001,1002,1002,1002,1002,1002,1003,0,0,0,0,0,0,0,1023,1023,1023,1023,1023,1023,1023,1023,1023,1023,1023,0,0,1023,1141,1141,1141,1141,1141,
0,0,0,0,0,0,0,0,0,0,0,0,0,0,0,0,0,0,0,0,0,0,0,0,0,0,0,0,0,0,0,0,0,0,0,0,0,0,0,1023,1023,1023,1013,1010,1010,1010,1010,1010,1010,1010,1010,1011,0,0,1009,1149,1149,1149,1149,1149,
0,0,0,0,0,0,0,0,0,0,0,0,0,0,0,0,0,0,0,0,0,0,0,0,0,0,0,0,0,0,0,0,0,0,0,0,0,0,1023,1023,1013,1011,1013,1010,1141,1141,1141,1141,1141,1141,1010,1011,1217,1218,1009,1157,1157,1157,1157,1157,
0,0,0,0,0,0,0,0,0,0,0,0,0,0,0,0,0,0,0,0,0,0,0,0,0,0,0,0,0,0,0,0,0,0,0,0,1023,1023,1023,1014,1013,1011,1021,1018,1149,1149,1149,1149,1149,1149,1018,1019,1225,1226,1017,1165,1165,1165,1165,1165,
0,0,0,0,0,0,0,0,0,0,0,0,0,0,0,0,0,0,0,0,0,0,0,0,0,0,0,0,0,0,0,0,0,0,0,1023,1023,1013,1011,1014,1021,1019,1463,1464,1157,1157,1157,1157,1157,1157,0,0,0,0,0,1165,1165,1165,1165,1165,
0,0,0,0,0,0,0,0,0,0,0,0,0,0,0,0,0,0,0,0,0,0,0,0,0,0,0,0,0,0,0,0,0,0,0,1023,1014,1013,1011,1022,0,0,1471,1472,1165,1165,1165,1165,1165,1165,0,0,0,0,0,1009,1010,1010,1010,1010,
0,0,0,0,0,0,0,0,0,0,0,0,0,0,0,0,0,0,0,644,1637,0,0,0,0,0,0,0,0,0,0,0,0,0,0,1023,1014,1021,1019,0,0,0,1479,1480,1165,1165,1165,1165,1165,1165,0,0,0,0,0,1009,1010,1010,1010,1010,
0,0,0,0,0,0,0,0,0,0,0,0,0,0,0,0,0,0,0,0,0,0,0,0,0,0,0,0,0,0,0,0,0,0,1023,1023,1022,0,0,0,0,0,0,0,1009,1010,1010,1010,1016,1011,0,0,0,0,1452,1009,1010,1016,1010,1010,
0,0,0,0,0,0,0,0,0,0,0,0,0,0,0,0,0,0,0,0,0,0,0,0,0,0,0,0,0,0,0,0,0,0,1023,1014,0,0,0,0,0,0,0,0,1017,1018,1018,1018,1024,1019,0,0,0,0,1452,1017,1018,1024,1018,1018,
0,0,0,0,0,0,0,0,0,0,0,0,0,0,0,0,0,0,0,0,0,0,0,0,0,0,0,0,0,0,0,0,0,0,1023,1141,1141,1141,1141,1141,0,0,0,0,0,0,0,0,0,0,0,0,0,0,0,0,0,0,1433,1433,
0,0,0,0,0,0,0,0,0,0,0,0,0,0,0,0,0,0,0,0,0,0,0,0,0,0,0,0,0,0,0,0,0,0,1023,1149,1149,1149,1149,1149,0,0,868,868,868,868,868,868,868,868,868,868,0,0,0,868,868,868,868,868,
0,0,0,0,0,0,0,0,0,0,0,0,0,0,0,0,0,0,0,0,0,0,0,0,0,0,0,0,0,0,0,0,0,0,1023,1157,1157,1157,1157,1157,0,0,868,0,0,0,0,0,0,0,0,0,826,825,828,0,0,0,0,0,
0,0,0,0,0,0,0,0,0,0,0,0,0,0,0,0,0,0,0,0,0,0,0,0,0,0,0,0,0,0,0,0,0,0,1023,1165,1165,1165,1165,1165,0,0,868,0,0,0,0,0,0,0,0,0,826,825,828,0,0,0,0,0,
0,0,0,0,0,0,0,0,0,0,0,0,0,0,0,0,0,0,0,0,0,0,0,0,0,0,0,0,0,0,0,0,0,0,1023,1165,1165,1165,1165,1165,0,0,868,0,0,0,0,0,0,0,0,0,826,825,828,0,0,0,0,0,
0,0,0,0,0,0,0,0,0,0,0,0,0,0,0,0,0,0,0,0,0,0,0,0,0,0,0,0,0,0,0,0,0,0,1023,1009,1010,1010,1010,1011,0,0,868,0,0,0,0,0,0,0,0,0,834,825,836,0,0,0,0,0,
0,0,0,0,0,0,0,0,0,0,0,0,0,0,0,0,0,0,0,0,0,0,0,0,0,0,0,0,0,0,0,0,0,0,1023,1017,1018,1018,1018,1019,0,0,868,0,0,0,0,868,868,868,868,868,0,0,0,868,868,868,868,868,
0,0,0,0,0,0,0,0,0,0,0,0,0,0,0,0,0,0,0,0,0,0,0,0,0,0,0,0,0,0,0,0,0,0,1023,0,0,0,0,0,0,0,868,0,0,0,0,868,0,0,0,0,0,0,0,0,0,0,0,0,
0,0,0,0,0,0,0,0,0,0,0,0,0,0,0,0,0,0,0,0,0,0,0,0,0,0,0,0,0,0,0,0,0,0,1023,1141,1141,1141,1141,1141,0,0,868,0,0,0,0,868,0,0,1520,0,0,0,0,0,1520,0,0,0,
0,0,0,0,0,0,0,0,0,0,0,0,0,0,0,0,0,0,0,0,0,0,0,0,0,0,0,0,0,0,0,0,0,0,1023,1149,1149,1149,1149,1149,0,0,0,817,817,817,817,0,0,0,0,0,1505,1506,1507,0,0,0,0,0,
0,0,0,0,0,0,0,0,0,0,0,0,0,0,0,0,0,0,0,0,0,0,0,0,0,0,0,0,0,0,0,0,0,0,1023,1157,1157,1157,1157,1157,0,0,0,825,825,825,825,0,0,0,0,0,1513,1514,1515,0,0,0,0,0,
0,0,0,0,0,0,0,0,0,0,0,0,0,0,0,0,0,0,0,0,0,0,0,0,0,0,0,0,0,0,0,0,0,0,1023,1165,1165,1165,1165,1165,0,0,868,833,833,833,833,868,0,0,0,0,1521,1522,1523,0,0,0,0,0,
0,0,0,0,0,0,0,0,0,0,0,0,0,0,0,0,0,0,0,0,0,0,0,0,0,0,0,0,0,0,0,0,0,0,1023,1165,1165,1165,1165,1165,0,0,868,818,819,819,820,868,0,0,1520,0,0,0,0,0,1520,0,0,0,
0,0,0,0,0,0,0,0,0,0,0,0,0,0,0,0,0,0,0,0,0,0,0,0,0,0,0,0,0,0,0,0,0,0,1023,1009,1010,1010,1010,1011,0,0,868,0,0,0,0,868,0,0,0,0,0,0,0,0,0,0,0,0
</data>
 </layer>
 <layer id="11" name="building_up" width="60" height="60">
  <data encoding="csv">
0,0,0,0,0,0,0,0,0,0,0,0,0,0,0,0,0,0,0,0,0,0,0,0,0,0,0,0,0,0,0,0,0,711,0,0,0,0,0,0,0,0,0,0,0,0,0,0,0,0,0,0,0,0,0,0,0,0,0,0,
0,0,0,0,0,0,0,0,0,0,0,0,0,0,0,0,0,0,0,0,0,0,0,0,0,0,0,0,0,0,0,0,0,719,0,0,0,0,0,0,0,0,0,0,0,0,0,0,0,0,0,0,0,0,0,0,0,0,0,0,
0,0,0,0,0,0,0,0,0,0,0,0,0,0,0,0,0,0,0,0,0,0,0,0,0,0,0,0,0,0,0,0,0,727,0,0,0,0,0,0,0,0,0,0,0,0,0,0,0,0,0,0,0,0,0,0,0,0,0,0,
0,0,0,0,0,0,0,0,0,0,0,0,0,0,0,0,0,0,0,0,0,0,0,0,0,0,0,0,0,0,0,0,0,0,0,0,0,0,0,0,0,0,0,0,0,0,0,0,0,0,0,0,0,0,0,0,0,0,0,0,
0,0,0,0,0,0,0,0,0,0,0,0,0,0,0,0,0,0,0,0,0,0,0,0,0,0,0,0,0,0,0,0,0,0,0,0,0,0,0,0,0,0,0,0,0,0,0,0,0,0,0,0,0,0,0,0,0,0,0,0,
0,0,0,0,0,0,0,0,0,0,0,0,0,0,0,0,0,0,0,0,0,0,0,0,0,0,0,0,0,0,0,0,0,0,0,0,0,0,0,0,0,0,0,0,0,0,0,0,0,0,0,0,0,0,0,0,0,0,0,0,
0,0,0,0,0,0,0,0,0,0,0,0,0,0,0,0,0,0,0,0,0,0,0,0,0,0,0,0,0,0,0,0,0,0,0,0,0,0,0,0,0,0,0,0,0,0,0,0,0,0,0,0,0,0,0,0,0,0,0,0,
0,0,0,0,0,0,0,0,0,0,0,0,0,0,0,0,0,0,0,0,0,0,0,0,0,0,0,0,0,0,0,0,0,0,0,0,0,0,0,0,0,0,0,0,0,0,0,0,0,0,0,0,0,0,0,0,0,0,0,0,
0,0,0,0,0,0,0,0,0,1169,0,1169,0,935,0,0,0,0,0,0,0,0,0,0,0,0,0,0,0,0,0,0,0,0,0,0,0,0,0,0,0,0,0,0,0,0,0,0,0,0,0,0,0,0,0,0,0,0,710,0,
0,0,0,0,0,0,0,0,0,1177,0,1177,0,0,0,0,0,0,0,0,0,0,0,0,0,0,0,0,0,0,0,0,0,0,0,0,0,0,0,0,0,0,0,0,0,0,0,0,0,0,0,0,0,0,0,0,0,0,718,0,
0,0,0,0,0,0,0,0,0,0,0,0,0,0,0,0,0,0,0,0,0,0,0,0,0,0,0,0,0,0,0,0,0,0,0,0,0,0,0,0,0,0,0,0,0,0,0,0,0,0,0,0,0,0,0,0,0,0,718,0,
0,0,0,0,0,0,0,0,0,0,0,0,0,0,0,0,0,0,0,0,0,0,0,0,0,0,0,0,0,0,0,0,0,0,0,0,0,0,0,0,0,0,0,0,0,0,0,0,0,0,0,670,0,0,0,0,0,0,698,0,
0,0,0,0,0,0,0,0,0,0,0,0,0,0,0,0,0,0,0,0,0,0,0,0,0,0,0,0,0,0,0,0,0,0,0,0,0,0,0,0,0,0,0,0,0,0,0,0,0,0,0,678,0,0,0,0,0,0,0,0,
0,0,0,0,0,0,0,0,0,0,0,0,0,0,0,0,0,0,0,0,0,0,0,0,0,0,0,0,0,0,0,0,0,0,0,0,0,0,0,0,0,0,0,0,688,0,0,0,0,0,0,678,0,0,0,0,0,0,0,0,
0,0,0,0,0,0,0,0,0,0,0,0,0,0,0,0,0,0,0,0,0,0,0,0,0,0,0,0,0,0,0,0,0,0,0,0,0,0,0,0,0,0,710,0,688,688,0,0,0,0,0,658,0,711,0,0,0,0,0,0,
0,0,0,0,0,0,0,0,0,0,0,0,0,0,0,0,0,0,0,0,0,0,0,0,0,0,0,0,0,0,0,0,0,0,0,0,0,0,0,0,0,0,718,0,0,688,0,0,0,0,0,0,0,727,0,0,0,0,0,0,
0,0,0,0,0,0,0,0,0,0,0,0,0,0,0,0,0,0,0,0,0,0,0,0,0,0,0,0,0,0,0,0,0,0,0,0,0,0,0,0,0,0,718,0,0,0,0,0,0,0,0,0,0,0,0,0,0,0,0,0,
0,0,0,0,0,0,0,0,0,0,0,0,0,0,0,0,0,0,0,0,0,0,0,0,0,0,0,0,0,0,0,0,0,0,0,0,0,0,0,0,0,0,698,0,0,0,0,0,0,0,0,0,0,0,0,0,0,0,0,0,
0,0,0,0,0,0,0,0,0,0,0,0,0,0,0,0,0,0,0,0,0,0,0,0,0,0,0,0,0,0,0,0,0,0,0,0,0,0,0,0,0,0,0,0,0,0,0,0,0,0,0,0,0,0,0,0,0,0,0,0,
0,0,0,0,0,0,0,0,0,0,0,0,0,0,0,0,0,0,0,0,0,0,0,0,0,0,0,0,0,0,0,0,0,0,1144,0,0,0,0,0,0,0,0,0,0,0,0,0,0,0,0,0,0,0,0,0,0,0,0,0,
0,0,0,0,0,0,0,0,0,0,0,0,0,0,0,0,0,0,0,0,0,0,0,0,0,0,0,0,0,0,0,0,0,0,1152,0,0,0,0,0,0,0,0,0,0,0,0,0,0,0,0,0,0,0,0,0,0,0,0,0,
0,0,0,0,0,0,0,0,0,0,0,0,0,0,0,0,0,0,0,0,0,0,0,0,0,0,0,0,0,0,0,0,0,0,1160,0,0,0,0,0,0,0,0,0,0,0,0,0,0,0,0,0,0,0,0,0,0,0,0,0,
0,1486,1486,1486,1486,1486,0,0,0,0,0,0,0,0,0,0,0,0,0,0,0,0,0,0,0,0,0,0,0,0,0,0,0,0,0,0,0,0,1172,0,0,0,0,0,0,0,0,0,0,0,0,0,0,0,0,0,0,0,0,0,
0,1494,1494,1494,1494,1494,0,0,0,0,0,0,0,0,0,0,0,0,0,0,0,0,0,0,0,0,0,0,0,0,0,0,0,0,0,0,0,0,1180,0,0,0,0,0,0,0,0,0,0,0,0,0,0,0,0,0,0,0,0,0,
0,1510,1502,1502,1502,1510,0,0,0,0,0,0,0,0,0,0,0,0,0,0,0,0,0,0,0,0,0,1233,0,1172,967,0,1172,1172,0,0,0,1172,967,1246,0,0,0,0,0,0,0,0,0,0,0,0,0,0,0,0,0,0,0,0,
0,0,0,0,1561,1235,0,0,0,0,0,0,0,0,0,0,0,0,0,0,0,0,0,0,0,0,0,0,0,1180,0,0,1180,1180,0,0,0,1180,0,0,0,0,0,0,0,0,0,0,0,0,0,0,0,0,0,0,0,0,0,0,
0,0,1558,1571,1587,1627,0,0,0,0,0,0,0,0,0,0,0,0,0,0,0,0,0,0,0,0,0,0,0,0,0,0,0,1630,0,0,0,0,0,0,0,0,0,0,0,0,0,0,0,0,0,0,0,0,0,0,0,0,0,0,
1563,1562,1604,0,0,1635,0,0,0,0,0,0,0,0,0,0,0,0,0,0,0,0,0,0,0,0,0,0,0,0,0,0,0,0,0,0,0,0,0,0,0,0,0,0,0,0,0,0,0,0,0,0,0,0,0,0,0,0,0,0,
1549,1629,1638,0,0,0,0,0,0,0,0,0,0,0,0,0,0,0,0,0,0,0,0,0,0,0,0,0,0,0,0,0,0,0,0,0,0,0,0,0,0,0,0,0,0,0,0,0,0,0,0,0,0,0,0,0,0,0,0,0,
0,0,0,0,0,0,0,0,0,0,0,0,0,0,0,0,0,0,0,0,0,0,0,0,0,0,0,0,0,0,0,0,0,0,0,0,0,0,0,0,0,0,0,0,0,0,0,0,0,0,0,0,0,0,0,0,0,0,0,0,
0,0,0,0,0,0,0,0,0,0,0,0,0,0,0,0,0,0,0,0,0,0,0,0,0,0,0,0,0,0,0,0,0,0,0,0,0,0,0,0,0,0,0,0,0,0,0,0,0,0,0,0,0,0,0,0,0,0,0,0,
0,0,0,0,0,0,0,0,0,0,0,0,0,0,0,0,0,0,0,0,0,0,0,0,0,0,0,0,0,0,0,0,0,0,0,0,0,0,0,0,0,0,0,0,0,0,0,0,0,0,0,0,0,0,0,0,0,0,0,0,
0,0,0,0,0,0,0,0,0,0,0,0,0,0,0,0,0,0,0,0,0,0,0,0,0,0,0,0,1144,0,0,0,0,0,0,0,0,0,0,0,0,0,0,0,0,0,0,0,0,0,0,0,0,0,0,0,0,0,0,0,
0,0,0,0,0,0,0,0,0,0,0,0,0,0,0,0,0,0,0,0,0,0,0,0,0,0,0,0,1152,0,0,0,0,0,0,0,0,0,0,0,0,0,0,0,0,0,0,0,0,0,0,0,0,0,0,0,0,0,0,0,
0,0,0,0,0,0,0,0,0,0,0,0,0,0,0,0,0,0,0,0,0,0,0,0,0,0,0,0,1160,0,0,0,0,0,1459,1460,0,0,0,0,0,0,0,0,0,0,0,0,0,0,0,0,0,0,0,0,0,0,0,0,
0,0,0,0,0,0,0,0,0,0,0,0,0,0,0,0,0,0,0,0,0,0,0,0,0,0,0,0,0,0,0,0,0,0,1467,1468,0,0,0,0,0,0,0,0,0,0,0,0,0,0,0,0,0,0,0,0,0,0,0,0,
0,0,0,0,0,0,0,0,0,0,0,0,0,0,0,0,0,0,0,0,0,0,0,0,0,0,0,0,1170,1170,0,1170,1170,0,1475,1476,0,0,0,0,0,0,0,0,0,0,0,0,0,0,0,0,0,0,0,0,0,0,0,0,
0,0,0,0,0,0,0,0,0,0,0,0,0,0,0,0,0,0,0,0,0,0,0,0,0,0,0,0,1178,1178,0,1178,1178,0,1437,1445,0,0,0,0,0,0,0,0,0,0,0,0,0,0,0,0,0,0,0,0,0,0,0,0,
0,0,0,0,0,0,0,0,0,0,0,0,0,0,0,0,0,0,0,0,0,0,0,0,0,0,0,0,0,0,0,0,0,0,0,0,0,0,0,0,0,0,0,0,0,0,0,0,0,0,0,0,0,0,0,0,0,0,0,0,
0,0,0,0,0,0,0,0,0,0,0,0,0,0,0,0,0,0,0,0,0,0,0,0,0,0,0,0,0,0,0,0,0,0,0,0,0,0,0,0,0,0,0,0,0,0,0,0,0,0,0,0,0,0,0,0,0,0,0,0,
0,0,0,0,0,0,0,0,0,0,0,0,0,0,0,0,0,0,0,0,0,0,0,0,0,0,0,0,0,0,0,0,0,0,0,0,0,0,0,0,0,0,0,0,1144,0,0,0,0,0,0,1485,0,0,1485,0,0,0,0,0,
0,0,0,0,0,0,0,0,0,0,0,0,0,0,0,0,0,0,0,0,0,0,0,0,0,0,0,0,0,0,0,0,0,0,0,0,0,0,0,0,0,0,0,0,1160,0,0,0,0,0,0,1493,0,0,1493,0,0,0,0,0,
0,0,0,0,0,0,0,0,0,0,0,0,0,0,0,0,0,0,0,0,0,0,0,0,0,0,0,0,0,0,0,0,0,0,0,0,0,0,0,0,0,0,0,0,0,0,0,0,0,0,0,0,0,0,1241,0,1171,1171,0,1171,
0,0,0,0,0,0,0,0,0,0,0,0,0,0,0,0,0,0,0,0,0,0,0,0,0,0,0,0,0,0,0,0,0,0,0,0,0,0,0,0,0,0,1463,1464,0,0,0,0,0,0,0,0,0,0,1237,0,1179,1179,0,1179,
0,0,0,0,0,0,0,0,0,0,0,0,0,0,0,0,0,0,0,0,0,0,0,0,0,0,0,0,0,0,0,0,0,0,0,0,0,0,0,0,0,0,1471,1472,0,1171,1171,0,1015,0,0,0,0,0,0,0,0,1015,1171,1171,
0,0,0,0,0,0,0,0,0,0,0,0,0,0,0,0,0,0,0,0,0,0,0,0,0,0,0,0,0,0,0,0,0,0,0,0,0,0,0,0,0,0,1479,1480,0,1179,1179,0,0,0,0,0,0,0,0,0,0,0,1179,1179,
0,0,0,0,0,0,0,0,0,0,0,0,0,0,0,0,0,0,0,0,0,0,0,0,0,0,0,0,0,0,0,0,0,0,0,0,0,0,0,0,0,0,0,0,0,0,0,0,0,0,0,0,0,0,0,0,0,0,0,0,
0,0,0,0,0,0,0,0,0,0,0,0,0,0,0,0,0,0,0,0,0,0,0,0,0,0,0,0,0,0,0,0,0,0,0,1144,0,0,0,0,0,0,0,0,0,0,0,0,0,0,0,0,0,0,0,0,0,0,0,0,
0,0,0,0,0,0,0,0,0,0,0,0,0,0,0,0,0,0,0,0,0,0,0,0,0,0,0,0,0,0,0,0,0,0,0,1160,0,0,0,0,0,0,0,0,0,0,0,0,0,0,0,0,0,0,0,0,0,0,0,0,
0,0,0,0,0,0,0,0,0,0,0,0,0,0,0,0,0,0,0,0,0,0,0,0,0,0,0,0,0,0,0,0,0,0,0,0,0,0,0,0,0,0,0,0,0,0,0,0,0,0,0,0,0,0,0,0,0,0,0,0,
0,0,0,0,0,0,0,0,0,0,0,0,0,0,0,0,0,0,0,0,0,0,0,0,0,0,0,0,0,0,0,0,0,0,0,0,0,0,0,0,0,0,0,0,0,0,0,0,0,0,0,0,0,0,0,0,0,0,0,0,
0,0,0,0,0,0,0,0,0,0,0,0,0,0,0,0,0,0,0,0,0,0,0,0,0,0,0,0,0,0,0,0,0,0,0,0,1171,0,1171,0,0,0,0,0,0,0,0,0,0,0,0,0,0,0,0,0,0,0,0,0,
0,0,0,0,0,0,0,0,0,0,0,0,0,0,0,0,0,0,0,0,0,0,0,0,0,0,0,0,0,0,0,0,0,0,0,0,1179,0,1179,0,0,0,0,0,0,0,0,0,0,0,0,0,0,0,0,0,0,0,0,0,
0,0,0,0,0,0,0,0,0,0,0,0,0,0,0,0,0,0,0,0,0,0,0,0,0,0,0,0,0,0,0,0,0,0,0,0,0,0,0,0,0,0,0,0,0,0,0,0,0,0,0,0,0,0,0,0,0,0,0,0,
0,0,0,0,0,0,0,0,0,0,0,0,0,0,0,0,0,0,0,0,0,0,0,0,0,0,0,0,0,0,0,0,0,0,0,0,0,0,0,0,0,0,0,0,0,0,0,0,0,0,0,0,0,0,0,0,0,0,0,0,
0,0,0,0,0,0,0,0,0,0,0,0,0,0,0,0,0,0,0,0,0,0,0,0,0,0,0,0,0,0,0,0,0,0,0,1144,0,0,0,0,0,0,0,0,0,0,0,0,0,0,0,0,0,0,0,0,0,0,0,0,
0,0,0,0,0,0,0,0,0,0,0,0,0,0,0,0,0,0,0,0,0,0,0,0,0,0,0,0,0,0,0,0,0,0,0,1160,0,0,0,0,0,0,0,0,0,0,0,0,0,0,0,0,0,0,0,0,0,0,0,0,
0,0,0,0,0,0,0,0,0,0,0,0,0,0,0,0,0,0,0,0,0,0,0,0,0,0,0,0,0,0,0,0,0,0,0,0,0,0,0,0,0,0,0,0,0,0,0,0,0,0,0,0,0,0,0,0,0,0,0,0,
0,0,0,0,0,0,0,0,0,0,0,0,0,0,0,0,0,0,0,0,0,0,0,0,0,0,0,0,0,0,0,0,0,0,0,0,0,0,0,0,0,0,0,0,0,0,0,0,0,0,0,0,0,0,0,0,0,0,0,0,
0,0,0,0,0,0,0,0,0,0,0,0,0,0,0,0,0,0,0,0,0,0,0,0,0,0,0,0,0,0,0,0,0,0,0,0,1171,0,1171,0,0,0,0,0,0,0,0,0,0,0,0,0,0,0,0,0,0,0,0,0
</data>
 </layer>
 <layer id="9" name="tree" width="60" height="60">
  <data encoding="csv">
594,585,586,641,585,610,609,586,585,610,594,585,586,629,593,594,0,585,610,594,585,586,625,0,0,0,0,0,0,0,620,0,0,0,0,593,594,625,0,0,633,641,0,0,0,0,642,0,585,586,0,641,0,0,0,0,0,0,641,0,
585,610,594,626,593,609,610,594,593,594,621,593,594,0,625,585,586,593,609,586,593,609,586,0,0,0,0,0,0,0,0,0,0,0,0,617,0,585,586,0,0,0,585,586,0,641,0,0,593,594,0,0,0,0,0,0,0,0,0,0,
593,594,0,625,0,593,594,0,0,630,625,0,0,626,0,601,602,585,610,609,586,593,594,0,0,0,0,0,0,0,0,0,0,0,0,0,626,593,609,586,0,0,593,609,586,0,585,586,617,0,0,0,621,0,0,0,0,0,0,0,
630,0,0,0,0,0,0,0,0,0,0,0,0,0,0,593,594,593,609,610,594,623,624,0,0,0,0,0,0,0,0,618,0,587,588,0,0,585,610,594,0,0,0,593,594,0,593,594,0,0,0,0,0,0,0,0,0,0,0,0,
586,0,0,0,0,0,0,0,0,0,0,0,0,0,0,0,625,621,593,594,0,626,0,0,645,0,0,0,0,0,0,0,587,612,596,0,0,593,594,0,0,0,0,0,617,0,633,0,0,0,0,0,0,0,0,585,586,0,0,641,
594,0,0,0,0,0,0,0,0,0,0,0,0,0,0,0,0,626,0,0,585,586,0,621,630,0,0,0,0,0,0,0,595,611,588,0,0,0,641,626,617,0,0,0,0,0,0,0,0,0,585,586,0,0,0,593,609,586,0,0,
626,0,0,0,0,0,0,0,0,0,0,0,0,0,0,0,0,0,0,625,593,609,586,626,0,0,0,0,0,0,0,0,0,595,596,0,585,586,0,0,633,625,0,0,0,0,0,0,585,586,593,594,0,0,0,0,593,594,0,633,
621,0,0,0,0,0,0,0,0,0,0,0,0,0,0,0,0,0,0,0,585,610,594,641,0,0,0,0,0,0,0,0,0,0,0,625,593,609,586,0,0,621,585,586,0,0,0,585,610,594,642,0,626,585,586,0,0,0,0,0,
625,0,0,0,0,0,0,0,0,0,0,0,0,0,0,0,0,0,0,629,601,602,625,0,0,0,0,0,0,0,0,0,0,0,618,0,0,593,594,585,586,0,593,609,586,0,585,610,609,586,0,0,585,610,594,0,0,0,0,0,
586,0,0,0,0,0,0,0,0,0,0,0,0,0,0,0,0,0,0,0,593,594,0,0,0,0,0,0,0,0,0,0,0,0,0,620,0,0,0,593,594,0,626,601,602,585,610,609,610,594,0,0,593,594,585,586,0,0,0,0,
594,0,0,0,0,626,0,0,0,0,0,0,0,0,0,0,0,0,626,621,0,0,0,0,0,0,0,0,0,0,0,0,0,587,588,625,0,0,0,0,617,0,641,601,602,593,594,593,594,0,0,641,625,617,593,594,0,0,0,0,
626,625,0,0,0,0,0,0,626,0,0,0,0,0,0,0,0,0,621,585,586,0,0,0,0,0,0,0,0,0,587,588,618,595,596,617,585,586,0,0,0,0,0,593,594,625,0,0,0,0,0,0,0,0,0,626,617,0,0,0,
586,621,585,586,0,0,0,0,0,0,0,0,0,0,0,0,585,586,585,610,594,0,0,0,0,0,0,0,0,0,595,611,588,0,585,586,593,609,586,0,625,0,0,0,0,0,585,586,0,617,0,0,0,625,0,0,0,633,0,621,
609,586,593,609,586,629,0,0,0,0,0,0,0,0,0,585,610,609,610,594,0,0,0,0,0,0,0,0,0,626,0,595,596,585,610,609,586,593,594,0,621,626,0,625,0,0,593,594,0,0,0,0,0,0,0,585,586,0,0,0,
593,594,585,610,609,586,626,0,0,0,0,0,0,0,0,593,594,593,594,0,0,0,0,0,0,0,0,0,587,588,617,0,585,610,609,610,594,626,585,586,0,0,0,0,0,0,0,0,0,0,0,0,0,0,0,593,594,626,585,586,
586,625,593,609,610,594,0,0,0,0,0,585,586,626,621,625,0,0,0,0,0,0,0,0,0,0,0,0,595,596,625,585,610,594,593,594,0,0,0,0,0,0,0,0,0,0,0,0,0,0,0,0,0,0,0,0,625,585,610,594,
609,586,585,610,594,625,0,0,0,0,585,610,594,629,0,0,0,0,0,0,0,0,0,0,0,0,0,0,0,585,586,593,594,585,586,625,0,0,0,0,0,0,0,0,0,0,0,0,585,586,0,626,0,585,586,0,0,593,594,625,
593,594,593,594,585,586,0,0,0,0,593,594,0,0,0,0,0,0,0,0,0,0,0,0,0,0,0,0,0,0,0,0,0,0,0,0,0,0,0,0,0,0,0,0,0,0,625,0,593,609,586,0,585,610,594,0,0,0,0,0,
0,0,630,0,593,594,0,0,0,621,0,625,0,0,0,0,0,0,0,0,0,0,0,620,0,0,618,0,0,0,0,0,0,0,0,0,0,0,0,0,0,0,0,0,0,0,625,0,617,593,594,625,593,609,586,0,0,0,0,0,
0,0,0,0,0,0,0,0,0,0,0,0,641,0,0,0,0,0,0,0,0,0,0,0,0,585,586,626,0,0,0,0,0,0,0,0,0,0,0,0,0,625,0,0,0,0,585,586,0,0,0,0,0,593,594,0,585,586,0,0,
0,0,0,0,0,0,0,0,0,0,0,0,0,0,0,0,0,0,0,0,0,0,0,0,0,593,594,0,0,0,0,0,0,0,0,0,0,0,0,0,0,626,0,0,626,0,593,609,586,0,0,585,586,0,617,585,610,609,586,0,
0,0,0,0,0,0,0,0,0,0,0,0,0,0,0,0,0,0,0,0,0,0,620,585,586,0,0,625,0,0,0,0,0,0,0,0,0,0,0,0,0,0,0,625,0,617,0,593,594,0,625,593,594,585,586,593,609,610,594,0,
617,0,0,0,0,0,0,0,0,585,586,0,0,0,0,0,0,0,0,0,0,0,585,610,594,0,617,0,0,0,0,0,0,0,0,0,0,0,0,0,0,0,0,0,0,585,586,0,0,0,0,0,585,610,594,617,593,594,0,617,
625,0,0,0,0,0,0,0,0,593,594,625,585,586,0,0,0,0,0,0,0,625,593,594,0,0,0,0,0,0,0,0,0,0,0,0,0,0,0,0,0,0,0,0,0,593,594,0,0,0,626,0,593,594,0,626,0,625,585,586,
621,0,0,0,0,0,0,0,0,0,617,626,593,609,586,0,0,0,0,0,0,0,0,585,586,626,0,0,0,0,0,0,0,0,0,0,0,0,0,0,0,0,0,0,626,0,0,0,0,585,586,0,0,0,0,585,586,0,593,594,
0,0,0,0,0,0,0,0,0,0,0,0,0,593,594,625,585,586,0,0,0,0,0,593,594,0,0,0,0,0,0,0,0,0,0,0,0,0,0,0,0,0,0,0,0,0,0,585,586,593,609,586,0,0,0,593,594,0,625,585,
0,0,0,0,0,0,0,0,0,0,0,0,0,626,617,0,593,594,0,0,0,0,626,0,0,0,0,0,0,0,0,0,0,0,0,0,0,0,0,0,0,626,0,0,585,586,0,593,594,585,610,594,0,0,0,617,0,626,585,610,
0,0,0,0,0,0,0,0,0,0,0,0,0,0,0,0,626,617,0,0,0,0,0,0,0,625,0,0,626,0,0,0,0,0,0,0,0,0,0,0,0,0,617,585,610,594,626,0,617,593,594,625,0,626,0,0,625,0,593,594,
0,0,0,0,0,0,0,0,0,0,0,0,0,0,0,0,0,0,0,0,0,0,0,0,0,0,0,0,0,0,0,0,0,0,0,0,0,0,0,0,0,0,0,593,594,0,0,0,0,0,0,0,0,625,0,0,0,585,586,0,
0,0,0,0,0,626,0,625,0,0,0,0,0,0,0,0,0,0,0,0,0,0,0,0,0,0,0,0,0,0,0,0,0,0,0,0,0,0,0,0,0,0,0,0,0,625,0,585,586,0,0,0,0,0,0,585,586,593,594,585,
617,585,586,0,0,621,0,585,586,0,0,0,0,0,0,0,0,0,0,0,0,0,0,0,0,0,0,0,0,0,0,0,0,0,0,0,0,0,0,0,0,0,0,0,0,0,0,593,594,0,617,0,585,586,0,593,594,0,0,593,
585,610,594,625,585,586,0,593,594,585,586,0,0,0,0,0,0,0,0,0,0,0,0,0,0,0,0,0,0,0,0,0,0,0,0,0,0,0,0,0,0,0,0,0,0,626,0,0,0,625,0,0,593,609,586,0,0,625,585,586,
593,594,626,0,593,609,586,0,617,593,594,0,0,585,586,0,0,0,0,0,0,0,0,0,585,586,0,0,0,0,0,0,0,0,0,0,0,0,0,0,0,0,0,0,0,0,0,0,0,0,0,0,626,593,594,626,0,585,610,594,
0,0,585,586,585,610,594,629,585,586,626,585,586,593,609,586,625,0,617,0,0,0,625,585,610,594,626,0,0,0,0,0,0,0,0,0,0,0,0,0,0,0,0,0,0,0,0,0,0,0,0,0,0,0,0,0,0,593,609,586,
625,585,610,594,593,594,585,586,593,594,0,593,594,585,610,594,585,586,0,0,0,0,0,593,594,0,0,0,0,0,0,0,0,0,0,0,0,617,585,586,0,0,0,0,0,0,0,0,0,0,0,0,0,0,0,0,625,617,593,594,
626,593,594,617,0,585,610,594,0,625,585,586,0,593,594,625,593,594,0,0,0,0,0,625,0,0,0,0,0,0,0,0,0,0,0,0,0,0,593,594,0,626,0,0,0,0,0,0,0,0,0,0,0,0,0,0,0,585,586,0,
0,0,0,585,586,593,594,617,621,0,593,594,585,586,0,585,586,0,0,0,0,0,0,0,585,586,0,0,0,0,0,0,0,0,0,0,0,626,0,0,0,0,0,617,0,0,0,625,0,0,0,0,0,0,0,0,0,593,594,626,
586,0,0,593,594,0,0,0,585,586,0,617,593,594,0,593,594,0,0,0,0,0,0,0,593,594,625,0,0,585,586,0,0,0,0,0,0,0,0,625,0,0,0,0,0,0,0,0,0,0,0,0,0,0,0,0,0,0,0,0,
594,0,625,0,0,626,0,585,610,594,0,0,0,629,621,0,0,0,0,0,0,0,0,0,0,0,0,0,617,593,594,0,585,586,0,0,0,0,0,0,0,0,0,0,0,0,0,0,0,0,0,0,0,0,0,0,0,0,0,0,
617,0,621,0,0,0,0,593,594,0,0,625,585,586,0,626,0,0,0,0,0,0,0,0,0,0,0,0,0,626,0,585,610,594,0,625,0,0,0,0,0,0,0,0,0,0,0,0,0,0,0,0,0,0,0,0,0,0,0,0,
0,626,0,629,0,0,0,0,0,0,0,0,593,594,617,0,0,0,585,586,585,586,0,0,0,0,0,0,0,0,0,593,594,0,0,0,0,0,0,0,0,0,0,0,0,0,0,0,0,0,0,0,0,0,0,0,0,0,0,0,
585,586,0,0,0,585,586,0,626,585,586,0,0,0,0,0,0,585,610,594,593,609,586,0,0,0,0,0,0,629,0,0,0,0,0,0,0,0,0,0,0,0,0,0,0,0,0,0,0,0,0,0,0,0,0,0,0,0,0,0,
593,594,585,586,0,593,594,0,0,593,594,0,0,0,0,0,585,610,594,0,0,593,594,0,0,0,0,0,0,617,0,0,626,585,586,0,0,0,0,0,0,0,0,0,0,0,0,0,0,0,0,0,0,0,0,0,0,0,0,0,
0,585,610,594,0,0,621,0,0,0,617,0,625,0,0,0,593,594,0,0,0,0,0,0,626,0,0,0,0,0,0,0,0,593,594,0,0,0,0,0,0,0,0,0,0,0,0,0,0,0,0,0,0,0,0,0,0,0,0,0,
0,593,594,0,617,625,0,626,0,646,0,640,0,0,0,585,586,0,0,0,0,0,0,585,586,0,0,0,0,585,586,626,0,0,0,0,0,0,0,0,0,0,0,0,0,0,0,0,0,0,0,0,0,0,0,0,0,0,0,0,
628,0,585,586,0,0,585,586,0,0,0,648,0,0,0,593,609,586,0,0,0,0,585,610,594,0,0,0,0,593,594,0,625,0,0,0,0,0,0,0,0,0,0,0,0,0,0,0,0,0,0,0,0,0,0,0,0,0,0,0,
592,0,593,594,585,586,593,594,0,621,629,1452,0,0,0,617,593,609,586,0,585,586,593,594,0,0,0,0,0,0,0,0,585,586,0,0,0,0,0,0,0,0,0,0,0,0,0,0,0,0,0,0,0,0,0,0,0,0,0,0,
600,0,0,0,593,594,626,0,585,586,626,0,0,0,0,0,625,593,594,630,593,594,0,0,0,0,0,0,626,0,0,617,601,602,0,0,0,0,0,0,0,0,0,0,0,0,0,0,0,0,0,0,0,0,0,0,0,0,0,0,
0,620,0,625,0,617,0,585,610,594,0,0,0,0,0,0,0,0,0,0,0,0,0,0,0,585,586,617,0,0,585,586,593,594,0,0,0,0,0,0,0,0,0,0,0,0,0,0,0,0,0,0,0,0,0,0,0,0,0,0,
0,591,592,0,621,0,0,593,594,0,0,0,0,0,0,0,0,0,0,0,0,0,0,0,0,593,609,586,625,0,593,594,0,629,0,0,0,0,0,0,0,0,0,0,0,0,0,0,0,0,0,0,0,0,0,0,0,0,0,0,
591,616,600,0,0,585,586,626,0,617,0,0,0,0,0,0,0,0,0,0,0,0,585,586,585,586,593,594,0,0,0,0,625,0,0,0,0,0,0,0,0,0,0,0,0,0,0,0,0,0,0,0,0,0,0,0,0,0,0,0,
599,600,0,627,0,593,594,585,586,0,0,0,0,0,0,0,0,0,0,0,0,585,610,594,593,594,0,0,0,0,626,0,585,586,0,0,0,0,0,0,0,0,0,0,0,0,0,0,0,0,0,0,0,0,0,0,0,0,0,0,
0,0,0,591,592,0,0,593,594,0,0,0,0,0,0,0,0,0,585,586,625,593,594,617,0,0,625,0,0,585,586,0,593,594,0,0,0,0,0,0,0,0,0,0,0,0,0,0,0,0,0,0,0,0,0,0,0,0,0,0,
0,628,0,599,600,0,591,592,628,0,0,0,0,0,0,0,0,0,593,594,629,626,0,0,0,585,586,0,585,610,594,0,625,617,0,0,0,0,0,0,0,0,0,0,0,0,0,0,0,0,0,0,0,0,0,0,0,0,0,0,
0,0,0,0,0,620,599,600,0,0,0,0,0,0,0,591,592,625,0,0,0,0,0,585,586,593,594,0,593,594,0,0,0,0,0,0,0,0,0,0,0,0,0,0,0,0,0,0,0,0,0,0,0,0,0,0,0,0,0,0,
0,0,0,0,0,0,0,627,591,592,0,0,0,0,0,599,615,592,0,585,586,625,585,610,609,586,0,626,0,0,629,585,586,0,0,0,0,0,0,0,0,0,0,0,0,0,0,0,0,0,0,0,0,0,0,0,0,0,0,0,
0,0,0,0,0,0,0,0,599,600,0,0,0,0,0,0,599,600,0,593,594,0,593,609,610,609,586,0,0,625,0,593,609,586,0,0,0,0,0,0,0,0,0,0,0,0,0,0,0,0,0,0,0,0,0,0,0,0,0,0,
0,0,0,0,0,0,0,0,0,0,0,0,0,0,0,0,0,0,627,0,591,592,617,593,594,593,594,585,586,0,617,0,593,594,0,0,0,0,0,0,0,0,0,0,0,0,0,0,0,0,0,0,0,0,0,0,0,0,0,0,
0,0,0,0,0,0,0,628,0,0,620,0,0,0,0,0,620,0,0,0,599,600,0,0,625,0,629,593,609,586,0,0,626,0,0,0,0,0,0,0,0,0,0,0,0,0,0,0,0,0,0,0,0,0,0,0,0,0,0,0,
0,0,0,0,0,0,0,0,0,0,0,0,0,0,0,0,0,0,0,0,628,0,620,0,0,626,617,0,593,594,0,585,586,0,0,0,0,0,0,0,0,0,0,0,0,0,0,0,0,0,0,0,0,0,0,0,0,0,0,0
</data>
 </layer>
 <objectgroup id="17" name="collision">
  <object id="200" x="266.667" y="1598.67" width="202.667" height="178.667"/>
  <object id="204" x="302.667" y="1558.67" width="596" height="74.3333"/>
  <object id="205" x="333.333" y="1502.67" width="564.667" height="65.3333"/>
  <object id="207" x="338.667" y="1397.33" width="221.333" height="126.667"/>
  <object id="208" x="400" y="1372" width="176" height="38.6667"/>
  <object id="209" x="428" y="1340" width="170.667" height="37.3333"/>
  <object id="210" x="428" y="1309.33" width="524" height="66.6667"/>
  <object id="211" x="373.333" y="1277.33" width="522.667" height="45.3333"/>
  <object id="212" x="770.667" y="1437.33" width="131.333" height="85.3333"/>
  <object id="213" x="784" y="1338.67" width="82.6667" height="77.3333"/>
  <object id="215" x="733.333" y="1328" width="78.6667" height="57.3333"/>
  <object id="216" x="852" y="1333.33" width="78.6667" height="52"/>
  <object id="217" x="885.333" y="1400" width="46.6667" height="60"/>
  <object id="220" x="530.667" y="1584" width="100" height="120"/>
  <object id="221" x="617.333" y="1574.67" width="97.3333" height="94.6667"/>
  <object id="224" x="590.667" y="1372" width="82.6667" height="34.6667"/>
  <object id="225" x="500" y="1220" width="310.667" height="72"/>
  <object id="226" x="788" y="1242.67" width="82.6667" height="60"/>
  <object id="227" x="502.667" y="1170.67" width="300" height="64"/>
  <object id="228" x="504" y="1118.67" width="245.333" height="66.6667"/>
  <object id="229" x="504" y="1081.33" width="209.333" height="38.6667"/>
  <object id="231" x="569.333" y="1044" width="136" height="44"/>
  <object id="233" x="540" y="993.333" width="197.333" height="69.3333"/>
  <object id="234" x="724" y="993.333" width="45.3333" height="50.6667"/>
  <object id="235" x="573.333" y="860" width="197.333" height="100"/>
  <object id="237" x="442.667" y="594.667" width="156" height="309.333"/>
  <object id="238" x="346.667" y="617.333" width="104" height="256"/>
  <object id="239" x="314.667" y="624" width="45.3333" height="193.333"/>
  <object id="240" x="262.667" y="609.333" width="58.6667" height="157.333"/>
  <object id="241" x="159.636" y="828" width="61.2975" height="41.3333"/>
  <object id="242" x="144.227" y="796" width="46.5531" height="107.277"/>
  <object id="243" x="-6.66667" y="822.667" width="174.667" height="44"/>
  <object id="244" x="1.33333" y="472" width="57.3333" height="390.667"/>
  <object id="245" x="57.3333" y="541.333" width="133.333" height="300"/>
  <object id="246" x="164" y="608" width="49.2376" height="149.333"/>
  <object id="247" x="0" y="378.667" width="36.6159" height="180"/>
  <object id="248" x="-2.66667" y="86.6667" width="58.6667" height="268"/>
  <object id="249" x="1.33333" y="-1.33333" width="734.667" height="104"/>
  <object id="250" x="482.667" y="80" width="252" height="57.3333"/>
  <object id="251" x="637.333" y="158.667" width="73.3333" height="168"/>
  <object id="252" x="702.667" y="182.667" width="34.6667" height="89.3333"/>
  <object id="253" x="445.333" y="212" width="41.3333" height="116"/>
  <object id="254" x="246.99" y="310.667" width="77.0105" height="46.6667"/>
  <object id="255" x="256" y="89.3333" width="160" height="236"/>
  <object id="256" x="385.333" y="89.3333" width="96" height="169.333"/>
  <object id="257" x="34.6667" y="284" width="188" height="40"/>
  <object id="258" x="217.333" y="92" width="45.3333" height="136"/>
  <object id="259" x="24" y="90.6667" width="254.667" height="30.6667"/>
  <object id="261" x="145.351" y="353.83" width="73.8476" height="36.8371"/>
  <object id="262" x="464" y="280" width="88" height="38.6667"/>
  <object id="263" x="480" y="170.667" width="36" height="142.667"/>
  <object id="265" x="500" y="177.333" width="45.3333" height="84"/>
  <object id="267" x="314.667" y="508" width="70.6667" height="72"/>
  <object id="268" x="344" y="474.667" width="76" height="72"/>
  <object id="269" x="478.667" y="413.333" width="128" height="70.6667"/>
  <object id="270" x="510.667" y="384" width="129.333" height="62.6667"/>
  <object id="271" x="610.667" y="350.667" width="64" height="70.6667"/>
  <object id="272" x="589.333" y="529.333" width="96" height="333.333"/>
  <object id="273" x="498.667" y="570.667" width="129.333" height="40"/>
  <object id="274" x="573.333" y="544" width="56" height="61.3333"/>
  <object id="275" x="674.667" y="408" width="33.3333" height="308"/>
  <object id="276" x="606.667" y="506.667" width="78.6667" height="42.6667"/>
  <object id="277" x="632" y="474.667" width="48" height="50.6667"/>
  <object id="278" x="698.667" y="366.667" width="37.3333" height="240"/>
  <object id="280" x="730.667" y="284" width="38.6667" height="257.333"/>
  <object id="281" x="760" y="189.333" width="42.6667" height="289.333"/>
  <object id="282" x="796" y="89.3333" width="40" height="293.333"/>
  <object id="283" x="826.667" y="0" width="36" height="314.667"/>
  <object id="284" x="854.667" y="-1.33333" width="42.6667" height="257.333"/>
  <object id="285" x="874.667" y="-2.66667" width="54.6667" height="190.667"/>
  <object id="286" x="917.333" y="0" width="44" height="65.3333"/>
  <object id="287" x="507" y="1755" width="63" height="76"/>
  <object id="288" x="463" y="1717" width="76" height="77"/>
  <object id="290" x="509" y="1671" width="33" height="87"/>
  <object id="291" x="637" y="1367" width="36" height="40"/>
  <object id="295" x="1110" y="436" width="202" height="350"/>
  <object id="296" x="958" y="322" width="294" height="226"/>
  <object id="297" x="1224" y="340" width="68" height="116"/>
  <object id="298" x="1206" y="276" width="56" height="78"/>
  <object id="299" x="1146" y="240" width="84" height="54"/>
  <object id="300" x="1142" y="278" width="66" height="80"/>
  <object id="301" x="1118" y="80" width="32" height="118"/>
  <object id="302" x="1058" y="-4" width="56" height="168"/>
  <object id="303" x="992" y="-4" width="76" height="98"/>
  <object id="304" x="1290" y="470" width="54" height="104"/>
  <object id="305" x="1376" y="472" width="42" height="96"/>
  <object id="306" x="1396" y="406" width="108" height="130"/>
  <object id="307" x="1474" y="384" width="64" height="182"/>
  <object id="308" x="1528" y="430" width="108" height="180"/>
  <object id="309" x="1630" y="372" width="36" height="114"/>
  <object id="310" x="1656" y="398" width="74" height="124"/>
  <object id="311" x="1712" y="436" width="58" height="116"/>
  <object id="312" x="1754" y="496" width="76" height="118"/>
  <object id="313" x="1812" y="474" width="66" height="172"/>
  <object id="314" x="1872" y="566" width="48" height="104"/>
  <object id="344" x="1500" y="734" width="2">
   <ellipse/>
  </object>
  <object id="349" x="67.9882" y="99.1153" width="24.574" height="53.2438"/>
  <object id="350" x="34.4037" y="418.578" width="120.413" height="135.157"/>
  <object id="351" x="139.253" y="445.609" width="54.0629" height="67.1691"/>
  <object id="352" x="63.0734" y="379.26" width="61.4351" height="44.2333"/>
  <object id="355" x="1249.18" y="701.999" width="95.0197" height="129.423"/>
  <object id="356" x="1313.89" y="701.999" width="69.6265" height="99.9345"/>
  <object id="357" x="1323.72" y="686.435" width="36.0419" height="25.3932"/>
  <object id="358" x="993.611" y="776.54" width="221.166" height="58.9777"/>
  <object id="359" x="892.857" y="787.189" width="66.3499" height="49.9672"/>
  <object id="360" x="1462.84" y="634.536" width="62.7061" height="103.132" rotation="320.163"/>
  <object id="361" x="1440.04" y="668.414" width="31.9463" height="34.4037"/>
  <object id="362" x="1441.68" y="702.818" width="60.616" height="69.6265"/>
  <object id="363" x="1650.33" y="577.839" width="83.6103" height="239.021" rotation="314.684"/>
  <object id="364" x="1627.62" y="638.925" width="64.7117" height="65.5308"/>
  <object id="365" x="1726.74" y="660.871" width="63.0734" height="103.211" rotation="46.7496"/>
  <object id="366" x="1760.32" y="703.637" width="31.9463" height="30.308"/>
  <object id="367" x="1888.11" y="671.691" width="31.9463" height="995.249"/>
  <object id="368" x="1860.26" y="738.86" width="31.9463" height="926.442"/>
  <object id="369" x="1824.21" y="896.953" width="63.0734" height="66.3499"/>
  <object id="370" x="1761.14" y="927.261" width="65.5308" height="67.1691"/>
  <object id="371" x="1821.76" y="1023.1" width="43.4142" height="391.547"/>
  <object id="372" x="1724.28" y="1179.55" width="100.754" height="290.793"/>
  <object id="373" x="1757.86" y="1118.12" width="29.4889" height="67.9882"/>
  <object id="374" x="1308.16" y="1182.83" width="353.866" height="131.062"/>
  <object id="375" x="1592.4" y="1118.94" width="39.3185" height="73.7221"/>
  <object id="376" x="1341.74" y="1319.63" width="198.231" height="149.902"/>
  <object id="377" x="1567.01" y="1299.15" width="36.0419" height="169.561"/>
  <object id="378" x="1476.9" y="1400.72" width="117.955" height="16.3827"/>
  <object id="379" x="1104.19" y="1305.7" width="243.283" height="43.4142"/>
  <object id="381" x="1235.26" y="1201.67" width="80.2752" height="42.595"/>
  <object id="382" x="1202.49" y="1237.71" width="63.0734" height="40.1376"/>
  <object id="383" x="1136.09" y="1268.69" width="76.2309" height="42.7488"/>
  <object id="384" x="1173.82" y="1368.77" width="80.2752" height="44.2333"/>
  <object id="385" x="1240.99" y="1327" width="39.3185" height="49.9672"/>
  <object id="386" x="1115.66" y="1346.66" width="72.903" height="99.9345"/>
  <object id="387" x="1075.52" y="1408.09" width="46.6907" height="508.683"/>
  <object id="388" x="1109.11" y="1723.46" width="175.295" height="195.773"/>
  <object id="389" x="1114.02" y="1468.71" width="169.561" height="231.815"/>
  <object id="390" x="1109.93" y="1427.75" width="44.2333" height="45.8716"/>
  <object id="391" x="1376.97" y="1829.95" width="127.785" height="87.6474"/>
  <object id="392" x="1370.41" y="1530.96" width="131.062" height="235.092"/>
  <object id="393" x="1372.05" y="1531.78" width="294.889" height="137.615"/>
  <object id="394" x="1753.77" y="1533.42" width="166.284" height="130.242"/>
  <object id="395" x="1662.84" y="1760.32" width="94.2005" height="95.0197"/>
  <object id="396" x="1788.99" y="1854.52" width="36.8611" height="32.7654"/>
  <object id="397" x="1791.45" y="1723.46" width="32.7654" height="36.8611"/>
  <object id="398" x="1599.77" y="1725.92" width="32.7654" height="31.1271"/>
  <object id="399" x="1600.59" y="1849.61" width="33.5845" height="37.6802"/>
  <object id="400" x="1631.72" y="1301.61" width="28.6697" height="42.595"/>
  <object id="401" x="860.092" y="1033.75" width="291.612" height="181.029"/>
  <object id="402" x="828.965" y="1082.08" width="36.8611" height="77.8178"/>
  <object id="403" x="860.092" y="986.239" width="227.72" height="69.6265"/>
  <object id="405" x="760.157" y="1144.33" width="71.2647" height="69.6265">
   <ellipse/>
  </object>
  <object id="406" x="801.318" y="1008.87" width="60.616" height="113.86" rotation="48.278"/>
  <object id="408" x="894.495" y="1186.93" width="99.1153" height="60.616"/>
  <object id="409" x="1050.13" y="1337.65" width="69.6265" height="72.0839"/>
  <object id="410" x="1025.56" y="1470.35" width="65.5308" height="103.211"/>
  <object id="411" x="991.153" y="1500.66" width="36.8611" height="32.7654"/>
  <object id="412" x="958.388" y="1531.78" width="67.1691" height="69.6265"/>
  <object id="413" x="1055.05" y="1692.33" width="35.2228" height="36.0419"/>
  <object id="414" x="1025.56" y="1629.26" width="69.6265" height="68.8073"/>
  <object id="415" x="979.389" y="1797.61" width="68.8073" height="111.402" rotation="308.51"/>
  <object id="416" x="958.388" y="1820.12" width="36.0419" height="39.3185"/>
  <object id="417" x="0.819135" y="1883.19" width="1112.39" height="31.1271"/>
  <object id="418" x="1.63827" y="550.459" width="31.9463" height="1367.96"/>
  <object id="420" x="964.749" y="1653.72" width="65.2758" height="98.8711" rotation="52.0496"/>
  <object id="421" x="702.675" y="1786.77" width="163.83" height="75.5152"/>
  <object id="422" x="702.675" y="1757.33" width="125.432" height="40.9574"/>
  <object id="423" x="734.673" y="1725.33" width="70.3955" height="48.6369"/>
  <object id="424" x="792.269" y="1692.05" width="71.6754" height="61.4361"/>
  <object id="425" x="853.705" y="1821.32" width="71.6754" height="61.4361"/>
  <object id="426" x="903.622" y="1848.2" width="58.8762" height="63.9959"/>
  <object id="427" x="607.961" y="1753.49" width="63.9959" height="70.3955"/>
  <object id="428" x="574.683" y="1695.89" width="63.9959" height="34.5578"/>
  <object id="429" x="634.839" y="1818.76" width="58.8762" height="67.8357"/>
  <object id="430" x="668.117" y="1630.62" width="101.114" height="63.9959"/>
  <object id="431" x="756.432" y="1624.22" width="76.7951" height="46.0771"/>
  <object id="434" x="660.438" y="1670.29" width="67.8357" height="33.2779"/>
  <object id="435" x="1022.28" y="1209.86" width="65.5308" height="65.5308"/>
  <object id="436" x="990.334" y="1244.27" width="63.0734" height="63.8925"/>
  <object id="437" x="892.038" y="542.267" width="70.4456" height="250.655"/>
  <object id="438" x="951.016" y="764.253" width="62.2543" height="16.3827"/>
  <object id="439" x="1757.86" y="832.241" width="32.7654" height="27.8506"/>
  <object id="440" x="1760.32" y="765.072" width="63.0734" height="66.3499"/>
  <object id="441" x="1568.64" y="832.241" width="62.2543" height="62.2543"/>
  <object id="442" x="1597.31" y="798.657" width="67.9882" height="67.1691"/>
  <object id="443" x="1567.01" y="768.349" width="62.2543" height="66.3499"/>
  <object id="444" x="1500.66" y="796.199" width="67.9882" height="65.5308"/>
  <object id="445" x="1535.88" y="860.911" width="31.9463" height="33.5845"/>
  <object id="446" x="1374.51" y="862.549" width="63.8925" height="63.8925"/>
  <object id="447" x="1406.45" y="830.603" width="66.3499" height="64.7117"/>
  <object id="448" x="1341.74" y="864.187" width="36.0419" height="31.9463"/>
  <object id="449" x="1698.07" y="989.515" width="61.4351" height="63.8925"/>
  <object id="450" x="1662.84" y="958.388" width="65.5308" height="64.7117"/>
  <object id="451" x="1596.49" y="957.569" width="35.2228" height="32.7654"/>
  <object id="452" x="1501.47" y="925.623" width="64.7117" height="64.7117"/>
  <object id="453" x="1374.51" y="1149.25" width="31.9463" height="31.9463"/>
  <object id="454" x="1214.78" y="1086.17" width="65.5308" height="64.7117"/>
  <object id="455" x="1181.19" y="1086.17" width="34.4037" height="31.1271"/>
  <object id="456" x="931.356" y="1404.82" width="61.4351" height="68.8073"/>
  <object id="457" x="509.502" y="1853.7" width="33.5845" height="29.4889"/>
  <object id="458" x="319.463" y="1855.34" width="33.5845" height="31.9463"/>
  <object id="459" x="262.123" y="1761.96" width="55.7012" height="63.8925"/>
  <object id="460" x="191.678" y="1693.97" width="61.4351" height="63.8925"/>
  <object id="461" x="158.093" y="1728.37" width="34.4037" height="27.0315"/>
  <object id="462" x="115.498" y="1662.84" width="25.3932" height="64.7117"/>
  <object id="463" x="220.347" y="1626.8" width="43.4142" height="68.8073"/>
  <object id="464" x="160.55" y="1598.95" width="57.3394" height="64.7117"/>
  <object id="465" x="0.819135" y="1598.95" width="59.7969" height="65.5308"/>
  <object id="466" x="31.1271" y="1566.19" width="61.4351" height="64.7117"/>
  <object id="467" x="155.636" y="1533.42" width="33.5845" height="33.5845"/>
  <object id="468" x="127.785" y="1469.53" width="60.616" height="67.1691"/>
  <object id="469" x="190.039" y="1437.58" width="65.5308" height="66.3499"/>
  <object id="470" x="63.0734" y="1435.94" width="61.4351" height="65.5308"/>
  <object id="471" x="122.87" y="1408.09" width="36.8611" height="31.9463"/>
  <object id="472" x="-1.63827" y="1341.74" width="93.3814" height="97.4771"/>
  <object id="473" x="18.021" y="1310.62" width="44.2333" height="67.1691"/>
  <object id="474" x="58.1586" y="1340.92" width="68.8073" height="67.1691"/>
  <object id="475" x="159.731" y="1309.8" width="61.4351" height="65.5308"/>
  <object id="476" x="317.005" y="1373.69" width="40.9567" height="39.3185"/>
  <object id="478" x="286.697" y="1311.44" width="65.5308" height="63.8925"/>
  <object id="479" x="220.347" y="1213.96" width="68.8073" height="67.1691"/>
  <object id="480" x="256.389" y="1182.83" width="62.2543" height="64.7117"/>
  <object id="481" x="95.0197" y="1054.23" width="161.37" height="130.242"/>
  <object id="482" x="95.8388" y="1150.07" width="65.5308" height="72.0839"/>
  <object id="484" x="68.8073" y="1059.14" width="58.1586" height="51.6055"/>
  <object id="486" x="49.1481" y="960.026" width="45.0524" height="64.7117"/>
  <object id="487" x="12.287" y="973.952" width="37.6802" height="81.9135"/>
  <object id="488" x="126.966" y="1019" width="95.8388" height="42.595"/>
  <object id="489" x="128.604" y="990.334" width="62.2543" height="57.3394"/>
  <object id="490" x="223.624" y="955.931" width="65.5308" height="68.8073"/>
  <object id="494" x="358.781" y="1066.51" width="90.924" height="151.54"/>
  <object id="495" x="417.759" y="1022.28" width="96.6579" height="67.1691"/>
  <object id="496" x="344" y="1776" width="154" height="122"/>
  <object id="497" x="244" y="1009.33" width="56" height="105.333"/>
  <object id="498" x="269.333" y="986.667" width="73.3333" height="61.3333"/>
  <object id="499" x="732" y="768" width="61.3333" height="62.6667"/>
  <object id="500" x="704" y="682.667" width="53.3333" height="82.6667"/>
  <object id="501" x="698.667" y="669.333" width="94.6667" height="65.3333"/>
  <object id="502" x="718.667" y="570.667" width="50.6667" height="33.3333"/>
  <object id="503" x="830.667" y="309.333" width="34.6667" height="69.3333"/>
  <object id="504" x="830.667" y="700" width="36" height="34.6667"/>
  <object id="505" x="794.667" y="606.667" width="69.3333" height="65.3333"/>
  <object id="506" x="829.333" y="574.667" width="33.3333" height="37.3333"/>
  <object id="507" x="894.667" y="441.333" width="73.3333" height="69.3333"/>
  <object id="508" x="1084" y="252" width="41.3333" height="36"/>
  <object id="509" x="1058.67" y="157.333" width="58.6667" height="69.3333"/>
  <object id="510" x="1022.67" y="126.667" width="78.6667" height="76"/>
  <object id="511" x="984" y="89.3333" width="38.6667" height="37.3333"/>
  <object id="512" x="1380" y="253.333" width="60" height="128"/>
  <object id="513" x="1342.67" y="218.667" width="74.6667" height="72"/>
  <object id="514" x="1433.33" y="280" width="69.3333" height="74.6667"/>
  <object id="515" x="1488" y="153.333" width="110.667" height="141.333"/>
  <object id="516" x="1590.67" y="93.3333" width="70.6667" height="125.333"/>
  <object id="517" x="1782.67" y="254.667" width="46.6667" height="121.333"/>
  <object id="519" x="1716" y="217.333" width="65.3333" height="136"/>
  <object id="520" x="1770.67" y="221.333" width="28" height="48"/>
  <object id="521" x="1724" y="157.333" width="36" height="70.6667"/>
  <object id="522" x="1698.67" y="314.667" width="40" height="38.6667"/>
  <object id="523" x="1666.67" y="253.333" width="64" height="56"/>
  <object id="524" x="1696" y="216" width="56" height="57.3333"/>
  <object id="525" x="1694.67" y="121.333" width="36" height="101.333"/>
  <object id="526" x="1628" y="92" width="73.3333" height="53.3333"/>
  <object id="527" x="1596" y="58.6667" width="45.3333" height="38.6667"/>
  <object id="528" x="1566.67" y="93.3333" width="29.3333" height="58.6667"/>
  <object id="529" x="1533.33" y="125.333" width="37.3333" height="24"/>
  <object id="530" x="1394.67" y="192" width="102.667" height="58.6667"/>
  <object id="531" x="1464" y="153.333" width="37.3333" height="40"/>
  <object id="532" x="1372" y="153.333" width="42.6667" height="69.3333"/>
  <object id="533" x="1337.33" y="121.333" width="45.3333" height="105.333"/>
  <object id="534" x="1306.67" y="90.6667" width="40" height="98.6667"/>
  <object id="535" x="1269.33" y="61.3333" width="44" height="89.3333"/>
  <object id="536" x="1212" y="-1.33333" width="76" height="66.6667"/>
  <object id="537" x="1210.67" y="53.3333" width="66.6667" height="78.6667"/>
  <object id="538" x="1189.33" y="93.3333" width="64" height="65.3333"/>
  <object id="539" x="1114.67" y="21.3333" width="33.3333" height="41.3333"/>
  <object id="540" x="1118.67" y="-6.66667" width="60" height="34.6667"/>
  <object id="541" x="1276" y="312" width="41.3333" height="40"/>
  <object id="542" x="1244" y="252" width="65.3333" height="66.6667"/>
  <object id="543" x="1192" y="220" width="56" height="60"/>
  <object id="544" x="1153.33" y="188" width="66.6667" height="53.3333"/>
  <object id="545" x="1501.33" y="284" width="69.3333" height="69.3333"/>
  <object id="546" x="1756" y="410.667" width="66.6667" height="72"/>
  <object id="547" x="1852" y="444" width="66.6667" height="78.6667"/>
  <object id="581" x="1820" y="281.333" width="37.3333" height="97.3333"/>
  <object id="582" x="1888" y="281.333" width="33.3333" height="101.333"/>
  <object id="583" x="1854.67" y="58.6667" width="65.3333" height="62.6667"/>
  <object id="584" x="1784" y="22.6667" width="38.6667" height="66.6667"/>
  <object id="585" x="1724" y="-4" width="69.3333" height="65.3333"/>
  <object id="586" x="1690.67" y="-2.66667" width="41.3333" height="30.6667"/>
  <object id="587" x="1584" y="-4" width="17.3333" height="70.6667"/>
  <object id="588" x="1781.33" y="-13.3333" width="142.667" height="24"/>
  <object id="589" x="1908" y="-2.66667" width="40" height="72"/>
  <object id="590" x="1904" y="97.3333" width="32" height="192"/>
  <object id="591" x="1909.33" y="366.667" width="25.3333" height="100"/>
  <object id="592" x="1914.67" y="513.333" width="21.3333" height="62.6667"/>
  <object id="593" x="1096" y="-14.6667" width="594.667" height="21.3333"/>
  <object id="594" x="708" y="-16" width="118.667" height="21.3333"/>
  <object id="597" x="1272" y="1897.33" width="689.333" height="32"/>
  <object id="598" x="1902.67" y="1648" width="30.6667" height="278.667"/>
  <object id="599" x="2110.67" y="1737.33"/>
 </objectgroup>
 <objectgroup id="18" name="caves">
  <object id="548" x="957.333" y="284" width="37.3333" height="42.6667"/>
  <object id="549" x="1661.33" y="145.333" width="33.3333" height="46.6667"/>
  <object id="550" x="1857.33" y="702.667" width="30.6667" height="30.6667"/>
 </objectgroup>
 <objectgroup id="19" name="citydoor">
  <object id="551" x="1541.33" y="1418.67" width="25.3333" height="54.6667"/>
  <object id="552" x="1829.33" y="1414.67" width="29.3333" height="61.3333"/>
 </objectgroup>
 <objectgroup id="22" name="farmdoor">
  <object id="580" x="412" y="254.667" width="32" height="65.3333"/>
 </objectgroup>
 <objectgroup id="21" name="towndoor">
  <object id="578" x="954.667" y="774.667" width="38.6667" height="54.6667"/>
  <object id="579" x="1205.33" y="776" width="46.6667" height="50.6667"/>
 </objectgroup>
</map>
